BatekPetr/FinalProject/results/TrajectorySims/SlowSequence/SlowSequence_joints_1_Targ_Pt.csv
time[s], Q0, Q1, Q2, Q3, Q4, Q5, Q6, Time for Inverse kinematics[s], Time for move[ms]
0,0,-0.65,0,1.8,0,0.42,0,0,0
1,0.0152643,-0.65,0.017994,1.8,0.00559033,0.42,0.000837818,90,910
2,0.0135032,-0.64984,0.0159171,1.80031,0.00495362,0.420197,0.000750657,770,230
3,0.0120387,-0.649886,0.0141923,1.80032,0.00441725,0.420212,0.000670973,96,904
4,0.0102816,-0.649943,0.0121228,1.80032,0.00377369,0.420231,0.000575428,78,922
5,0.00852442,-0.65,0.0100532,1.80033,0.00313014,0.42025,0.000479914,82,918
6,0.00676728,-0.650058,0.00798374,1.80033,0.0024866,0.42027,0.000384433,79,921
7,0.00501014,-0.650116,0.00591428,1.80034,0.00184308,0.42029,0.000288983,80,920
8,0.00354573,-0.650164,0.00418956,1.80034,0.00130675,0.420306,0.000209424,79,921
9,0.00178862,-0.650223,0.00212016,1.80034,0.000663245,0.420327,0.000114033,78,922
10,3.15071E-05,-0.650283,5.07874E-05,1.80034,1.97533E-05,0.420348,1.86745E-05,78,922
11,-0.00172559,-0.650343,-0.00201855,1.80035,-0.000623726,0.42037,-7.66522E-05,79,921
12,-0.00348267,-0.650403,-0.00408784,1.80035,-0.00126719,0.420392,-0.000171947,104,896
13,-0.00494703,-0.650453,-0.00581243,1.80035,-0.00180348,0.42041,-0.000251378,110,890
14,-0.00670408,-0.650514,-0.00788165,1.80035,-0.00244692,0.420433,-0.000346613,770,230
15,-0.00846112,-0.650576,-0.00995083,1.80034,-0.00309035,0.420456,-0.000441815,97,903
16,-0.0102181,-0.650638,-0.01202,1.80034,-0.00373377,0.42048,-0.000536985,790,210
17,-0.0119751,-0.6507,-0.0140891,1.80034,-0.00437717,0.420504,-0.000632122,765,235
18,-0.0134394,-0.650752,-0.0158135,1.80033,-0.00491341,0.420524,-0.000711424,80,920
19,-0.0151964,-0.650815,-0.0178825,1.80033,-0.00555679,0.420549,-0.000806501,136,864
20,-0.0169489,-0.651095,-0.0199383,1.80002,-0.0062059,0.420395,-0.000909875,128,872
21,-0.0187054,-0.65116,-0.0220075,1.80002,-0.00684898,0.420421,-0.00100488,79,921
22,-0.0201692,-0.651213,-0.0237321,1.80001,-0.00738495,0.420443,-0.00108407,776,224
23,-0.0219256,-0.651278,-0.0258012,1.8,-0.008028,0.420469,-0.00117901,762,238
24,-0.023682,-0.651343,-0.0278703,1.8,-0.00867105,0.420496,-0.00127391,80,920
25,-0.0254383,-0.651409,-0.0299393,1.79999,-0.00931407,0.420523,-0.00136879,675,325
26,-0.0269021,-0.651464,-0.0316637,1.79998,-0.00985,0.420546,-0.00144787,774,226
27,-0.0286584,-0.651531,-0.0337326,1.79997,-0.010493,0.420574,-0.00154268,103,897
28,-0.0304147,-0.651598,-0.0358014,1.79996,-0.011136,0.420603,-0.00163746,771,229
29,-0.0321709,-0.651665,-0.0378702,1.79995,-0.011779,0.420632,-0.0017322,797,203
30,-0.0336346,-0.651721,-0.0395944,1.79993,-0.0123148,0.420656,-0.00181118,113,887
31,-0.0353908,-0.65179,-0.041663,1.79992,-0.0129578,0.420685,-0.00190586,79,921
32,-0.0371469,-0.651859,-0.0437316,1.79991,-0.0136007,0.420716,-0.00200051,79,921
33,-0.0386062,-0.652132,-0.0454382,1.79959,-0.0141418,0.420561,-0.00208773,123,877
34,-0.0403618,-0.652201,-0.047507,1.79958,-0.0147844,0.420592,-0.0021823,79,921
35,-0.0421174,-0.652272,-0.0495757,1.79956,-0.015427,0.420624,-0.00227684,80,920
36,-0.0435805,-0.65233,-0.0512998,1.79955,-0.0159626,0.42065,-0.00235566,105,895
37,-0.045336,-0.652401,-0.0533684,1.79953,-0.0166052,0.420682,-0.00245013,97,903
38,-0.0470915,-0.652472,-0.0554369,1.79951,-0.0172478,0.420714,-0.00254457,110,890
39,-0.0485545,-0.652531,-0.0571608,1.7995,-0.0177833,0.420741,-0.00262331,115,885
40,-0.05031,-0.652603,-0.0592292,1.79948,-0.0184258,0.420775,-0.00271768,78,922
41,-0.0520609,-0.652892,-0.0612772,1.79915,-0.0190731,0.420629,-0.00282025,80,920
42,-0.0535234,-0.652952,-0.0630012,1.79914,-0.0196084,0.420657,-0.0028989,82,918
43,-0.0552782,-0.653026,-0.0650697,1.79911,-0.0202506,0.420692,-0.00299317,79,921
44,-0.057033,-0.6531,-0.067138,1.79909,-0.0208928,0.420727,-0.0030874,84,916
45,-0.0584954,-0.653161,-0.0688618,1.79907,-0.0214281,0.420756,-0.00316596,111,889
46,-0.0602501,-0.653236,-0.07093,1.79905,-0.0220703,0.420791,-0.00326013,80,920
47,-0.0620003,-0.653526,-0.0729759,1.79872,-0.0227169,0.420648,-0.00336246,79,921
48,-0.0634623,-0.653589,-0.0746997,1.7987,-0.0232519,0.420678,-0.00344093,141,859
49,-0.0652163,-0.653665,-0.076768,1.79867,-0.0238937,0.420715,-0.00353499,79,921
50,-0.0666782,-0.653728,-0.0784917,1.79865,-0.0244287,0.420746,-0.00361341,765,235
51,-0.0684322,-0.653804,-0.0805598,1.79862,-0.0250705,0.420783,-0.0037074,79,921
52,-0.0701862,-0.653882,-0.0826278,1.7986,-0.0257123,0.420821,-0.00380136,142,858
53,-0.0716436,-0.654161,-0.0843271,1.79827,-0.0262515,0.420673,-0.00388791,109,891
54,-0.073397,-0.654239,-0.0863953,1.79824,-0.026893,0.420712,-0.0039818,127,873
55,-0.0748582,-0.654304,-0.0881189,1.79822,-0.0274277,0.420744,-0.00406007,84,916
56,-0.0766115,-0.654383,-0.0901868,1.79818,-0.0280691,0.420784,-0.00415388,771,229
57,-0.0780684,-0.654664,-0.0918848,1.79786,-0.0286079,0.420637,-0.0042403,86,914
58,-0.0798211,-0.654744,-0.0939529,1.79782,-0.029249,0.420678,-0.00433404,80,920
59,-0.0812818,-0.65481,-0.0956764,1.7978,-0.0297834,0.420711,-0.00441219,894,106
60,-0.0830344,-0.65489,-0.0977443,1.79776,-0.0304245,0.420752,-0.00450587,79,921
61,-0.084495,-0.654957,-0.0994677,1.79773,-0.0309589,0.420787,-0.00458396,82,918
62,-0.086243,-0.655254,-0.101508,1.7974,-0.0316038,0.420649,-0.0046857,107,893
63,-0.0877031,-0.655321,-0.103232,1.79737,-0.0321379,0.420684,-0.00476373,79,921
64,-0.0894551,-0.655403,-0.105299,1.79733,-0.0327787,0.420726,-0.00485726,768,232
65,-0.0909151,-0.655471,-0.107023,1.7973,-0.0333127,0.420762,-0.00493524,810,190
66,-0.0926625,-0.655769,-0.109062,1.79696,-0.0339571,0.420625,-0.00503681,809,191
67,-0.094122,-0.655838,-0.110785,1.79693,-0.0344909,0.420662,-0.00511473,79,921
68,-0.0958732,-0.655922,-0.112853,1.79689,-0.0351313,0.420706,-0.00520811,759,241
69,-0.0973326,-0.655992,-0.114576,1.79685,-0.0356651,0.420743,-0.00528597,112,888
70,-0.0987877,-0.656276,-0.116269,1.79652,-0.0362025,0.4206,-0.00537195,114,886
71,-0.100538,-0.656362,-0.118337,1.79648,-0.0368426,0.420645,-0.00546522,83,917
72,-0.101997,-0.656432,-0.12006,1.79644,-0.0373761,0.420683,-0.00554299,82,918
73,-0.103743,-0.656733,-0.122097,1.7961,-0.0380195,0.420549,-0.00564428,105,895
74,-0.105202,-0.656804,-0.12382,1.79606,-0.0385527,0.420587,-0.00572198,109,891
75,-0.10666,-0.656876,-0.125544,1.79602,-0.039086,0.420626,-0.00579966,107,893
76,-0.10841,-0.656963,-0.127611,1.79598,-0.0397257,0.420674,-0.00589275,112,888
77,-0.109864,-0.65725,-0.129302,1.79564,-0.0402622,0.420532,-0.0059785,79,921
78,-0.111321,-0.657322,-0.131025,1.7956,-0.0407951,0.420572,-0.00605608,78,922
79,-0.113071,-0.657411,-0.133092,1.79555,-0.0414346,0.420621,-0.00614906,78,922
80,-0.114524,-0.657698,-0.134782,1.79521,-0.0419706,0.42048,-0.0062347,768,232
81,-0.115981,-0.657772,-0.136506,1.79517,-0.0425033,0.420521,-0.0063122,749,251
82,-0.117438,-0.657846,-0.138229,1.79513,-0.043036,0.420562,-0.00638966,103,897
83,-0.119182,-0.65815,-0.140262,1.79478,-0.043678,0.420431,-0.00649055,85,915
84,-0.120639,-0.658225,-0.141985,1.79474,-0.0442104,0.420473,-0.00656795,165,835
85,-0.122096,-0.6583,-0.143708,1.7947,-0.0447428,0.420515,-0.00664532,127,873
86,-0.123839,-0.658606,-0.14574,1.79434,-0.0453843,0.420385,-0.00674609,136,864
87,-0.125295,-0.658681,-0.147463,1.7943,-0.0459165,0.420428,-0.00682339,87,913
88,-0.126751,-0.658757,-0.149186,1.79426,-0.0464486,0.420471,-0.00690067,77,923
89,-0.128203,-0.659048,-0.150873,1.79391,-0.0469835,0.420333,-0.00698601,110,890
90,-0.129658,-0.659124,-0.152596,1.79387,-0.0475154,0.420376,-0.00706323,157,843
91,-0.131405,-0.659218,-0.154663,1.79381,-0.0481534,0.420429,-0.00715576,79,921
92,-0.132856,-0.659509,-0.156349,1.79346,-0.0486879,0.420293,-0.00724099,79,921
93,-0.134311,-0.659587,-0.158072,1.79342,-0.0492195,0.420337,-0.00731812,107,893
94,-0.135766,-0.659665,-0.159795,1.79337,-0.0497511,0.420382,-0.00739521,769,231
95,-0.137217,-0.659957,-0.16148,1.79302,-0.0502852,0.420246,-0.00748035,79,921
96,-0.138671,-0.660036,-0.163203,1.79297,-0.0508165,0.420291,-0.00755738,82,918
97,-0.140125,-0.660115,-0.164926,1.79292,-0.0513478,0.420336,-0.00763439,752,248
98,-0.141575,-0.660408,-0.16661,1.79257,-0.0518815,0.420201,-0.00771942,80,920
99,-0.14332,-0.660504,-0.168677,1.79251,-0.0525186,0.420257,-0.00781165,105,895
100,-0.144773,-0.660584,-0.1704,1.79246,-0.0530497,0.420304,-0.00788857,765,235
101,-0.146223,-0.660878,-0.172083,1.79211,-0.0535829,0.420169,-0.0079735,110,890
102,-0.146223,-0.660878,-0.172083,1.79211,-0.0535829,0.420169,-0.0079735,756,244
103,-0.146223,-0.660878,-0.172083,1.79211,-0.0535829,0.420169,-0.0079735,80,920
104,-0.146223,-0.660878,-0.172083,1.79211,-0.0535829,0.420169,-0.0079735,116,884
105,-0.146223,-0.660878,-0.172083,1.79211,-0.0535829,0.420169,-0.0079735,81,919
106,-0.146223,-0.660878,-0.172083,1.79211,-0.0535829,0.420169,-0.0079735,110,890
107,-0.146223,-0.660878,-0.172083,1.79211,-0.0535829,0.420169,-0.0079735,111,889
108,-0.146223,-0.660878,-0.172083,1.79211,-0.0535829,0.420169,-0.0079735,81,919
109,-0.146223,-0.660878,-0.172083,1.79211,-0.0535829,0.420169,-0.0079735,78,922
110,-0.146223,-0.660878,-0.172083,1.79211,-0.0535829,0.420169,-0.0079735,81,919
111,-0.146223,-0.660878,-0.172083,1.79211,-0.0535829,0.420169,-0.0079735,125,875
112,-0.146223,-0.660878,-0.172083,1.79211,-0.0535829,0.420169,-0.0079735,79,921
113,-0.146223,-0.660878,-0.172083,1.79211,-0.0535829,0.420169,-0.0079735,771,229
114,-0.146223,-0.660878,-0.172083,1.79211,-0.0535829,0.420169,-0.0079735,93,907
115,-0.146223,-0.660878,-0.172083,1.79211,-0.0535829,0.420169,-0.0079735,766,234
116,-0.146223,-0.660878,-0.172083,1.79211,-0.0535829,0.420169,-0.0079735,79,921
117,-0.146223,-0.660878,-0.172083,1.79211,-0.0535829,0.420169,-0.0079735,79,921
118,-0.146223,-0.660878,-0.172083,1.79211,-0.0535829,0.420169,-0.0079735,80,920
119,-0.146223,-0.660878,-0.172083,1.79211,-0.0535829,0.420169,-0.0079735,155,845
120,-0.146223,-0.660878,-0.172083,1.79211,-0.0535829,0.420169,-0.0079735,773,227
121,-0.146223,-0.660878,-0.172083,1.79211,-0.0535829,0.420169,-0.0079735,80,920
122,-0.146223,-0.660878,-0.172083,1.79211,-0.0535829,0.420169,-0.0079735,81,919
123,-0.146223,-0.660878,-0.172083,1.79211,-0.0535829,0.420169,-0.0079735,89,911
124,-0.146223,-0.660878,-0.172083,1.79211,-0.0535829,0.420169,-0.0079735,82,918
125,-0.146223,-0.660878,-0.172083,1.79211,-0.0535829,0.420169,-0.0079735,90,910
126,-0.146223,-0.660878,-0.172083,1.79211,-0.0535829,0.420169,-0.0079735,752,248
127,-0.146223,-0.660878,-0.172083,1.79211,-0.0535829,0.420169,-0.0079735,79,921
128,-0.146223,-0.660878,-0.172083,1.79211,-0.0535829,0.420169,-0.0079735,78,922
129,-0.146223,-0.660878,-0.172083,1.79211,-0.0535829,0.420169,-0.0079735,81,919
130,-0.146223,-0.660878,-0.172083,1.79211,-0.0535829,0.420169,-0.0079735,104,896
131,-0.146223,-0.660878,-0.172083,1.79211,-0.0535829,0.420169,-0.0079735,115,885
132,-0.146223,-0.660878,-0.172083,1.79211,-0.0535829,0.420169,-0.0079735,83,917
133,-0.146223,-0.660878,-0.172083,1.79211,-0.0535829,0.420169,-0.0079735,755,245
134,-0.146223,-0.660878,-0.172083,1.79211,-0.0535829,0.420169,-0.0079735,84,916
135,-0.146223,-0.660878,-0.172083,1.79211,-0.0535829,0.420169,-0.0079735,79,921
136,-0.146223,-0.660878,-0.172083,1.79211,-0.0535829,0.420169,-0.0079735,82,918
137,-0.146223,-0.660878,-0.172083,1.79211,-0.0535829,0.420169,-0.0079735,78,922
138,-0.146223,-0.660878,-0.172083,1.79211,-0.0535829,0.420169,-0.0079735,79,921
139,-0.146223,-0.660878,-0.172083,1.79211,-0.0535829,0.420169,-0.0079735,78,922
140,-0.146223,-0.660878,-0.172083,1.79211,-0.0535829,0.420169,-0.0079735,82,918
141,-0.146223,-0.660878,-0.172083,1.79211,-0.0535829,0.420169,-0.0079735,78,922
142,-0.146223,-0.660878,-0.172083,1.79211,-0.0535829,0.420169,-0.0079735,110,890
143,-0.146223,-0.660878,-0.172083,1.79211,-0.0535829,0.420169,-0.0079735,81,919
144,-0.146223,-0.660878,-0.172083,1.79211,-0.0535829,0.420169,-0.0079735,81,919
145,-0.146223,-0.660878,-0.172083,1.79211,-0.0535829,0.420169,-0.0079735,767,233
146,-0.146223,-0.660878,-0.172083,1.79211,-0.0535829,0.420169,-0.0079735,79,921
147,-0.146223,-0.660878,-0.172083,1.79211,-0.0535829,0.420169,-0.0079735,107,893
148,-0.146223,-0.660878,-0.172083,1.79211,-0.0535829,0.420169,-0.0079735,81,919
149,-0.146223,-0.660878,-0.172083,1.79211,-0.0535829,0.420169,-0.0079735,81,919
150,-0.146223,-0.660878,-0.172083,1.79211,-0.0535829,0.420169,-0.0079735,97,903
151,-0.146223,-0.660878,-0.172083,1.79211,-0.0535829,0.420169,-0.0079735,83,917
152,-0.146223,-0.660878,-0.172083,1.79211,-0.0535829,0.420169,-0.0079735,79,921
153,-0.146223,-0.660878,-0.172083,1.79211,-0.0535829,0.420169,-0.0079735,79,921
154,-0.146223,-0.660878,-0.172083,1.79211,-0.0535829,0.420169,-0.0079735,771,229
155,-0.146223,-0.660878,-0.172083,1.79211,-0.0535829,0.420169,-0.0079735,78,922
156,-0.146223,-0.660878,-0.172083,1.79211,-0.0535829,0.420169,-0.0079735,85,915
157,-0.146223,-0.660878,-0.172083,1.79211,-0.0535829,0.420169,-0.0079735,127,873
158,-0.146223,-0.660878,-0.172083,1.79211,-0.0535829,0.420169,-0.0079735,81,919
159,-0.146223,-0.660878,-0.172083,1.79211,-0.0535829,0.420169,-0.0079735,99,901
160,-0.146223,-0.660878,-0.172083,1.79211,-0.0535829,0.420169,-0.0079735,99,901
161,-0.146223,-0.660878,-0.172083,1.79211,-0.0535829,0.420169,-0.0079735,81,919
162,-0.146223,-0.660878,-0.172083,1.79211,-0.0535829,0.420169,-0.0079735,1274,0
163,-0.146223,-0.660878,-0.172083,1.79211,-0.0535829,0.420169,-0.0079735,104,896
164,-0.146223,-0.660878,-0.172083,1.79211,-0.0535829,0.420169,-0.0079735,144,856
165,-0.146223,-0.660878,-0.172083,1.79211,-0.0535829,0.420169,-0.0079735,85,915
166,-0.146223,-0.660878,-0.172083,1.79211,-0.0535829,0.420169,-0.0079735,97,903
167,-0.146223,-0.660878,-0.172083,1.79211,-0.0535829,0.420169,-0.0079735,79,921
168,-0.146223,-0.660878,-0.172083,1.79211,-0.0535829,0.420169,-0.0079735,79,921
169,-0.146223,-0.660878,-0.172083,1.79211,-0.0535829,0.420169,-0.0079735,108,892
170,-0.146223,-0.660878,-0.172083,1.79211,-0.0535829,0.420169,-0.0079735,80,920
171,-0.146223,-0.660878,-0.172083,1.79211,-0.0535829,0.420169,-0.0079735,760,240
172,-0.146223,-0.660878,-0.172083,1.79211,-0.0535829,0.420169,-0.0079735,910,90
173,-0.146223,-0.660878,-0.172083,1.79211,-0.0535829,0.420169,-0.0079735,84,916
174,-0.146223,-0.660878,-0.172083,1.79211,-0.0535829,0.420169,-0.0079735,85,915
175,-0.146223,-0.660878,-0.172083,1.79211,-0.0535829,0.420169,-0.0079735,112,888
176,-0.146223,-0.660878,-0.172083,1.79211,-0.0535829,0.420169,-0.0079735,92,908
177,-0.146223,-0.660878,-0.172083,1.79211,-0.0535829,0.420169,-0.0079735,87,913
178,-0.146223,-0.660878,-0.172083,1.79211,-0.0535829,0.420169,-0.0079735,78,922
179,-0.146223,-0.660878,-0.172083,1.79211,-0.0535829,0.420169,-0.0079735,80,920
180,-0.146223,-0.660878,-0.172083,1.79211,-0.0535829,0.420169,-0.0079735,84,916
181,-0.146223,-0.660878,-0.172083,1.79211,-0.0535829,0.420169,-0.0079735,83,917
182,-0.146223,-0.660878,-0.172083,1.79211,-0.0535829,0.420169,-0.0079735,126,874
183,-0.146223,-0.660878,-0.172083,1.79211,-0.0535829,0.420169,-0.0079735,80,920
184,-0.146223,-0.660878,-0.172083,1.79211,-0.0535829,0.420169,-0.0079735,79,921
185,-0.146223,-0.660878,-0.172083,1.79211,-0.0535829,0.420169,-0.0079735,328,672
186,-0.146223,-0.660878,-0.172083,1.79211,-0.0535829,0.420169,-0.0079735,85,915
187,-0.146223,-0.660878,-0.172083,1.79211,-0.0535829,0.420169,-0.0079735,78,922
188,-0.146223,-0.660878,-0.172083,1.79211,-0.0535829,0.420169,-0.0079735,898,102
189,-0.146223,-0.660878,-0.172083,1.79211,-0.0535829,0.420169,-0.0079735,80,920
190,-0.146223,-0.660878,-0.172083,1.79211,-0.0535829,0.420169,-0.0079735,81,919
191,-0.146223,-0.660878,-0.172083,1.79211,-0.0535829,0.420169,-0.0079735,81,919
192,-0.146223,-0.660878,-0.172083,1.79211,-0.0535829,0.420169,-0.0079735,101,899
193,-0.146223,-0.660878,-0.172083,1.79211,-0.0535829,0.420169,-0.0079735,79,921
194,-0.146223,-0.660878,-0.172083,1.79211,-0.0535829,0.420169,-0.0079735,103,897
195,-0.146223,-0.660878,-0.172083,1.79211,-0.0535829,0.420169,-0.0079735,1096,0
196,-0.146223,-0.660878,-0.172083,1.79211,-0.0535829,0.420169,-0.0079735,84,916
197,-0.146223,-0.660878,-0.172083,1.79211,-0.0535829,0.420169,-0.0079735,107,893
198,-0.146223,-0.660878,-0.172083,1.79211,-0.0535829,0.420169,-0.0079735,112,888
199,-0.146223,-0.660878,-0.172083,1.79211,-0.0535829,0.420169,-0.0079735,105,895
200,-0.146223,-0.660878,-0.172083,1.79211,-0.0535829,0.420169,-0.0079735,110,890
201,-0.146223,-0.660878,-0.172083,1.79211,-0.0535829,0.420169,-0.0079735,134,866
202,-0.144763,-0.661233,-0.17028,1.79155,-0.0530569,0.419762,-0.00791293,111,889
203,-0.143304,-0.661589,-0.168476,1.791,-0.0525313,0.419356,-0.00785235,80,920
204,-0.141845,-0.661945,-0.166672,1.79044,-0.0520062,0.41895,-0.00779176,78,922
205,-0.140387,-0.662301,-0.164869,1.78988,-0.0514817,0.418545,-0.00773116,78,922
206,-0.138643,-0.662429,-0.162757,1.78963,-0.0508483,0.418312,-0.00764646,135,865
207,-0.137186,-0.662786,-0.160953,1.78907,-0.0503245,0.417908,-0.00758583,852,148
208,-0.13573,-0.663144,-0.159149,1.78851,-0.0498013,0.417504,-0.0075252,83,917
209,-0.134275,-0.663501,-0.157345,1.78795,-0.0492785,0.4171,-0.00746455,84,916
210,-0.13253,-0.663846,-0.155195,1.7874,-0.0486505,0.416689,-0.00738837,93,907
211,-0.131077,-0.664204,-0.153391,1.78684,-0.0481287,0.416287,-0.0073277,108,892
212,-0.129624,-0.664562,-0.151587,1.78628,-0.0476075,0.415884,-0.00726702,86,914
213,-0.128171,-0.664921,-0.149782,1.78572,-0.0470867,0.415483,-0.00720633,82,918
214,-0.126431,-0.665267,-0.147631,1.78517,-0.046461,0.415074,-0.0071301,84,916
215,-0.12498,-0.665627,-0.145826,1.78461,-0.0459412,0.414673,-0.00706939,83,917
216,-0.12353,-0.665987,-0.144022,1.78404,-0.045422,0.414273,-0.00700866,82,918
217,-0.121792,-0.666334,-0.141869,1.78349,-0.044798,0.413865,-0.00693239,98,902
218,-0.120341,-0.66691,-0.14003,1.78262,-0.0442833,0.413287,-0.00688017,121,879
219,-0.118893,-0.667271,-0.138225,1.78206,-0.0437657,0.412889,-0.00681941,82,918
220,-0.117159,-0.66762,-0.136072,1.78151,-0.0431438,0.412483,-0.0067431,82,918
221,-0.115713,-0.667981,-0.134266,1.78094,-0.0426272,0.412085,-0.00668232,83,917
222,-0.114268,-0.668343,-0.13246,1.78038,-0.042111,0.411688,-0.00662152,112,888
223,-0.112535,-0.668693,-0.130307,1.77982,-0.0414908,0.411284,-0.00654517,96,904
224,-0.111092,-0.669056,-0.128501,1.77925,-0.0409757,0.410888,-0.00648435,95,905
225,-0.109649,-0.669419,-0.126695,1.77869,-0.040461,0.410492,-0.00642352,86,914
226,-0.107919,-0.66977,-0.12454,1.77813,-0.0398425,0.410089,-0.00634712,112,888
227,-0.106478,-0.670134,-0.122734,1.77756,-0.0393288,0.409695,-0.00628626,736,264
228,-0.10475,-0.670486,-0.120579,1.777,-0.0387114,0.409293,-0.00620984,104,896
229,-0.103307,-0.671066,-0.118741,1.77614,-0.0382027,0.408722,-0.00615746,109,891
230,-0.101868,-0.671431,-0.116934,1.77557,-0.0376906,0.408329,-0.00609657,83,917
231,-0.100144,-0.671784,-0.114778,1.77501,-0.0370752,0.407929,-0.0060201,84,916
232,-0.0987065,-0.67215,-0.112971,1.77444,-0.0365641,0.407537,-0.00595917,80,920
233,-0.0969838,-0.672504,-0.110814,1.77388,-0.0359497,0.407138,-0.00588267,107,893
234,-0.0955478,-0.672871,-0.109007,1.77331,-0.0354396,0.406747,-0.00582172,113,887
235,-0.0938269,-0.673226,-0.106849,1.77275,-0.0348264,0.40635,-0.00574518,107,893
236,-0.0923894,-0.67381,-0.105013,1.77188,-0.0343215,0.405783,-0.00569271,86,914
237,-0.090956,-0.674177,-0.103205,1.77131,-0.033813,0.405393,-0.00563172,112,888
238,-0.0892382,-0.674533,-0.101047,1.77075,-0.0332016,0.404998,-0.00555513,107,893
239,-0.0878063,-0.674902,-0.0992384,1.77018,-0.0326941,0.404609,-0.00549411,109,891
240,-0.0860902,-0.675259,-0.0970795,1.76962,-0.0320838,0.404215,-0.00541749,83,917
241,-0.0846568,-0.675845,-0.0952437,1.76875,-0.0315817,0.403651,-0.00536495,112,888
242,-0.0829429,-0.676203,-0.0930839,1.76818,-0.0309728,0.403258,-0.0052883,108,892
243,-0.0815143,-0.676573,-0.091275,1.76761,-0.0304673,0.402872,-0.00522721,112,888
244,-0.0798023,-0.676932,-0.0891147,1.76705,-0.0298595,0.40248,-0.00515053,81,919
245,-0.0783721,-0.67752,-0.0872794,1.76618,-0.0293595,0.401918,-0.00509792,877,123
246,-0.0766622,-0.67788,-0.0851182,1.76561,-0.028753,0.401528,-0.0050212,114,886
247,-0.0752369,-0.678252,-0.0833085,1.76504,-0.0282496,0.401144,-0.00496005,110,890
248,-0.0735289,-0.678612,-0.0811468,1.76447,-0.0276442,0.400754,-0.00488329,81,919
249,-0.0721019,-0.679202,-0.0793121,1.7636,-0.0271465,0.400195,-0.00483063,104,896
250,-0.070396,-0.679564,-0.0771495,1.76303,-0.0265423,0.399807,-0.00475383,106,894
251,-0.068974,-0.679937,-0.0753391,1.76246,-0.0260409,0.399425,-0.00469262,79,921
252,-0.0672699,-0.6803,-0.073176,1.76189,-0.0254379,0.399038,-0.00461579,109,891
253,-0.0658462,-0.680892,-0.0713417,1.76102,-0.0249423,0.398482,-0.00456306,82,918
254,-0.0641443,-0.681255,-0.0691777,1.76045,-0.0243406,0.398096,-0.00448618,92,908
255,-0.0627256,-0.68163,-0.0673665,1.75988,-0.0238412,0.397716,-0.00442491,79,921
256,-0.0610255,-0.681995,-0.065202,1.75931,-0.0232405,0.397332,-0.00434799,129,871
257,-0.0593226,-0.682579,-0.0630142,1.75844,-0.0226454,0.396773,-0.00427965,132,868
258,-0.0579065,-0.682955,-0.0612024,1.75787,-0.0221476,0.396395,-0.00421832,135,865
259,-0.0562094,-0.683321,-0.0590367,1.7573,-0.0215487,0.396012,-0.00414134,82,918
260,-0.0547914,-0.683916,-0.0572034,1.75643,-0.021057,0.395461,-0.0040885,117,883
261,-0.0530966,-0.684283,-0.0550368,1.75586,-0.0204594,0.395079,-0.00401148,114,886
262,-0.0516837,-0.684661,-0.0532242,1.75528,-0.0199635,0.394704,-0.00395008,84,916
263,-0.0499869,-0.685248,-0.0510359,1.75441,-0.0193722,0.394149,-0.00388162,83,917
264,-0.0485759,-0.685628,-0.0492228,1.75384,-0.0188774,0.393774,-0.00382019,85,915
265,-0.0468851,-0.685996,-0.0470547,1.75327,-0.0182821,0.393396,-0.00374308,110,890
266,-0.0451912,-0.686585,-0.0448663,1.7524,-0.0176928,0.392843,-0.00367456,108,892
267,-0.0437828,-0.686966,-0.0430526,1.75182,-0.0171995,0.392471,-0.00361307,82,918
268,-0.042095,-0.687336,-0.0408834,1.75125,-0.0166059,0.392094,-0.0035359,83,917
269,-0.0406844,-0.687936,-0.039051,1.75038,-0.0161191,0.391548,-0.0034829,117,883
270,-0.0389989,-0.688308,-0.0368809,1.7498,-0.0155267,0.391173,-0.00340569,93,907
271,-0.0375937,-0.68869,-0.0350663,1.74923,-0.0150354,0.390802,-0.00334412,80,920
272,-0.0359059,-0.689282,-0.0328774,1.74836,-0.0144498,0.390255,-0.00327547,81,919
273,-0.0342234,-0.689655,-0.0307061,1.74778,-0.0138592,0.389881,-0.00319818,109,891
274,-0.0328171,-0.690258,-0.0288742,1.74691,-0.0133751,0.389339,-0.0031451,113,887
275,-0.0311368,-0.690632,-0.0267019,1.74634,-0.0127857,0.388967,-0.00306777,112,888
276,-0.029736,-0.691016,-0.0248862,1.74576,-0.0122969,0.3886,-0.0030061,81,919
277,-0.0280534,-0.691611,-0.0226968,1.74489,-0.0117144,0.388056,-0.00293734,121,879
278,-0.0266544,-0.691997,-0.0208805,1.74431,-0.0112266,0.387689,-0.00287564,105,895
279,-0.0249781,-0.692373,-0.0187067,1.74374,-0.0106394,0.38732,-0.00279821,86,914
280,-0.0235766,-0.692979,-0.0168754,1.74287,-0.0101586,0.386782,-0.00274502,86,914
281,-0.0219025,-0.693356,-0.0147007,1.74229,-0.00957255,0.386414,-0.00266754,86,914
282,-0.0202251,-0.693954,-0.0125109,1.74142,-0.00899324,0.385874,-0.00259867,87,913
283,-0.0188304,-0.694342,-0.0106933,1.74084,-0.00850789,0.38551,-0.00253686,107,893
284,-0.0171594,-0.694721,-0.00851739,1.74027,-0.00792354,0.385144,-0.00245931,82,918
285,-0.0157621,-0.695329,-0.0066865,1.7394,-0.0074454,0.38461,-0.00240603,111,889
286,-0.0140933,-0.695709,-0.00450963,1.73882,-0.00686223,0.384245,-0.00232842,166,834
287,-0.0126978,-0.696319,-0.0026788,1.73795,-0.00638518,0.383712,-0.0022751,141,859
288,-0.0110313,-0.6967,-0.00050094,1.73737,-0.00580317,0.383349,-0.00219744,114,886
289,-0.00963752,-0.697311,0.00132982,1.7365,-0.00532722,0.382818,-0.00214408,81,919
290,-0.00797314,-0.697693,0.00350867,1.73592,-0.00474637,0.382456,-0.00206637,866,134
291,-0.00630961,-0.698076,0.00568772,1.73535,-0.00416601,0.382094,-0.00198863,83,917
292,-0.00491829,-0.698688,0.00751809,1.73448,-0.00369161,0.381565,-0.00193521,114,886
293,-0.00325697,-0.699072,0.00969814,1.7339,-0.00311239,0.381205,-0.00185742,86,914
294,-0.00186739,-0.699685,0.0115284,1.73303,-0.00263907,0.380677,-0.00180396,108,892
295,-0.000208281,-0.70007,0.0137095,1.73245,-0.002061,0.380319,-0.00172612,105,895
296,0.00117516,-0.700464,0.0155304,1.73187,-0.00158187,0.379963,-0.00166403,106,894
297,0.00283732,-0.701072,0.0177217,1.731,-0.00101166,0.379435,-0.0015948,579,421
298,0.00421894,-0.701467,0.0195432,1.73042,-0.00053351,0.37908,-0.00153267,575,425
299,0.00587896,-0.702075,0.0217349,1.72955,3.54772E-05,0.378554,-0.00146339,78,922
300,0.00725877,-0.702471,0.023557,1.72897,0.000512663,0.378201,-0.00140121,81,919
301,0.00891666,-0.703081,0.025749,1.7281,0.00108043,0.377675,-0.00133188,104,896
302,0.00891666,-0.703081,0.025749,1.7281,0.00108043,0.377675,-0.00133188,93,907
303,0.00891666,-0.703081,0.025749,1.7281,0.00108043,0.377675,-0.00133188,117,883
304,0.00891666,-0.703081,0.025749,1.7281,0.00108043,0.377675,-0.00133188,109,891
305,0.00891666,-0.703081,0.025749,1.7281,0.00108043,0.377675,-0.00133188,96,904
306,0.00891666,-0.703081,0.025749,1.7281,0.00108043,0.377675,-0.00133188,110,890
307,0.00891666,-0.703081,0.025749,1.7281,0.00108043,0.377675,-0.00133188,98,902
308,0.00891666,-0.703081,0.025749,1.7281,0.00108043,0.377675,-0.00133188,83,917
309,0.00891666,-0.703081,0.025749,1.7281,0.00108043,0.377675,-0.00133188,94,906
310,0.00891666,-0.703081,0.025749,1.7281,0.00108043,0.377675,-0.00133188,94,906
311,0.00891666,-0.703081,0.025749,1.7281,0.00108043,0.377675,-0.00133188,82,918
312,0.00891666,-0.703081,0.025749,1.7281,0.00108043,0.377675,-0.00133188,84,916
313,0.00891666,-0.703081,0.025749,1.7281,0.00108043,0.377675,-0.00133188,107,893
314,0.00891666,-0.703081,0.025749,1.7281,0.00108043,0.377675,-0.00133188,84,916
315,0.00891666,-0.703081,0.025749,1.7281,0.00108043,0.377675,-0.00133188,84,916
316,0.00891666,-0.703081,0.025749,1.7281,0.00108043,0.377675,-0.00133188,83,917
317,0.00891666,-0.703081,0.025749,1.7281,0.00108043,0.377675,-0.00133188,110,890
318,0.00891666,-0.703081,0.025749,1.7281,0.00108043,0.377675,-0.00133188,108,892
319,0.00891666,-0.703081,0.025749,1.7281,0.00108043,0.377675,-0.00133188,111,889
320,0.00891666,-0.703081,0.025749,1.7281,0.00108043,0.377675,-0.00133188,94,906
321,0.00891666,-0.703081,0.025749,1.7281,0.00108043,0.377675,-0.00133188,83,917
322,0.00891666,-0.703081,0.025749,1.7281,0.00108043,0.377675,-0.00133188,81,919
323,0.00891666,-0.703081,0.025749,1.7281,0.00108043,0.377675,-0.00133188,110,890
324,0.00891666,-0.703081,0.025749,1.7281,0.00108043,0.377675,-0.00133188,109,891
325,0.00891666,-0.703081,0.025749,1.7281,0.00108043,0.377675,-0.00133188,106,894
326,0.00891666,-0.703081,0.025749,1.7281,0.00108043,0.377675,-0.00133188,111,889
327,0.00891666,-0.703081,0.025749,1.7281,0.00108043,0.377675,-0.00133188,82,918
328,0.00891666,-0.703081,0.025749,1.7281,0.00108043,0.377675,-0.00133188,82,918
329,0.00891666,-0.703081,0.025749,1.7281,0.00108043,0.377675,-0.00133188,316,684
330,0.00891666,-0.703081,0.025749,1.7281,0.00108043,0.377675,-0.00133188,81,919
331,0.00891666,-0.703081,0.025749,1.7281,0.00108043,0.377675,-0.00133188,82,918
332,0.00891666,-0.703081,0.025749,1.7281,0.00108043,0.377675,-0.00133188,80,920
333,0.00891666,-0.703081,0.025749,1.7281,0.00108043,0.377675,-0.00133188,103,897
334,0.00891666,-0.703081,0.025749,1.7281,0.00108043,0.377675,-0.00133188,98,902
335,0.00891666,-0.703081,0.025749,1.7281,0.00108043,0.377675,-0.00133188,83,917
336,0.00891666,-0.703081,0.025749,1.7281,0.00108043,0.377675,-0.00133188,109,891
337,0.00891666,-0.703081,0.025749,1.7281,0.00108043,0.377675,-0.00133188,84,916
338,0.00891666,-0.703081,0.025749,1.7281,0.00108043,0.377675,-0.00133188,135,865
339,0.00891666,-0.703081,0.025749,1.7281,0.00108043,0.377675,-0.00133188,98,902
340,0.00891666,-0.703081,0.025749,1.7281,0.00108043,0.377675,-0.00133188,105,895
341,0.00891666,-0.703081,0.025749,1.7281,0.00108043,0.377675,-0.00133188,83,917
342,0.00891666,-0.703081,0.025749,1.7281,0.00108043,0.377675,-0.00133188,77,923
343,0.00891666,-0.703081,0.025749,1.7281,0.00108043,0.377675,-0.00133188,107,893
344,0.00891666,-0.703081,0.025749,1.7281,0.00108043,0.377675,-0.00133188,104,896
345,0.00891666,-0.703081,0.025749,1.7281,0.00108043,0.377675,-0.00133188,106,894
346,0.00891666,-0.703081,0.025749,1.7281,0.00108043,0.377675,-0.00133188,79,921
347,0.00891666,-0.703081,0.025749,1.7281,0.00108043,0.377675,-0.00133188,87,913
348,0.00891666,-0.703081,0.025749,1.7281,0.00108043,0.377675,-0.00133188,104,896
349,0.00891666,-0.703081,0.025749,1.7281,0.00108043,0.377675,-0.00133188,99,901
350,0.00891666,-0.703081,0.025749,1.7281,0.00108043,0.377675,-0.00133188,108,892
351,0.00891666,-0.703081,0.025749,1.7281,0.00108043,0.377675,-0.00133188,110,890
352,0.00891666,-0.703081,0.025749,1.7281,0.00108043,0.377675,-0.00133188,109,891
353,0.00891666,-0.703081,0.025749,1.7281,0.00108043,0.377675,-0.00133188,134,866
354,0.00891666,-0.703081,0.025749,1.7281,0.00108043,0.377675,-0.00133188,98,902
355,0.00891666,-0.703081,0.025749,1.7281,0.00108043,0.377675,-0.00133188,108,892
356,0.00891666,-0.703081,0.025749,1.7281,0.00108043,0.377675,-0.00133188,84,916
357,0.00891666,-0.703081,0.025749,1.7281,0.00108043,0.377675,-0.00133188,121,879
358,0.00891666,-0.703081,0.025749,1.7281,0.00108043,0.377675,-0.00133188,112,888
359,0.00891666,-0.703081,0.025749,1.7281,0.00108043,0.377675,-0.00133188,105,895
360,0.00891666,-0.703081,0.025749,1.7281,0.00108043,0.377675,-0.00133188,108,892
361,0.00891666,-0.703081,0.025749,1.7281,0.00108043,0.377675,-0.00133188,108,892
362,0.00891666,-0.703081,0.025749,1.7281,0.00108043,0.377675,-0.00133188,84,916
363,0.00891666,-0.703081,0.025749,1.7281,0.00108043,0.377675,-0.00133188,93,907
364,0.00891666,-0.703081,0.025749,1.7281,0.00108043,0.377675,-0.00133188,105,895
365,0.00891666,-0.703081,0.025749,1.7281,0.00108043,0.377675,-0.00133188,107,893
366,0.00891666,-0.703081,0.025749,1.7281,0.00108043,0.377675,-0.00133188,104,896
367,0.00891666,-0.703081,0.025749,1.7281,0.00108043,0.377675,-0.00133188,111,889
368,0.00891666,-0.703081,0.025749,1.7281,0.00108043,0.377675,-0.00133188,91,909
369,0.00891666,-0.703081,0.025749,1.7281,0.00108043,0.377675,-0.00133188,82,918
370,0.00891666,-0.703081,0.025749,1.7281,0.00108043,0.377675,-0.00133188,88,912
371,0.00891666,-0.703081,0.025749,1.7281,0.00108043,0.377675,-0.00133188,112,888
372,0.00891666,-0.703081,0.025749,1.7281,0.00108043,0.377675,-0.00133188,82,918
373,0.00891666,-0.703081,0.025749,1.7281,0.00108043,0.377675,-0.00133188,113,887
374,0.00891666,-0.703081,0.025749,1.7281,0.00108043,0.377675,-0.00133188,118,882
375,0.00891666,-0.703081,0.025749,1.7281,0.00108043,0.377675,-0.00133188,100,900
376,0.00891666,-0.703081,0.025749,1.7281,0.00108043,0.377675,-0.00133188,110,890
377,0.00891666,-0.703081,0.025749,1.7281,0.00108043,0.377675,-0.00133188,109,891
378,0.00891666,-0.703081,0.025749,1.7281,0.00108043,0.377675,-0.00133188,87,913
379,0.00891666,-0.703081,0.025749,1.7281,0.00108043,0.377675,-0.00133188,111,889
380,0.00891666,-0.703081,0.025749,1.7281,0.00108043,0.377675,-0.00133188,84,916
381,0.00891666,-0.703081,0.025749,1.7281,0.00108043,0.377675,-0.00133188,84,916
382,0.00891666,-0.703081,0.025749,1.7281,0.00108043,0.377675,-0.00133188,85,915
383,0.00891666,-0.703081,0.025749,1.7281,0.00108043,0.377675,-0.00133188,92,908
384,0.00891666,-0.703081,0.025749,1.7281,0.00108043,0.377675,-0.00133188,80,920
385,0.00891666,-0.703081,0.025749,1.7281,0.00108043,0.377675,-0.00133188,104,896
386,0.00891666,-0.703081,0.025749,1.7281,0.00108043,0.377675,-0.00133188,84,916
387,0.00891666,-0.703081,0.025749,1.7281,0.00108043,0.377675,-0.00133188,118,882
388,0.00891666,-0.703081,0.025749,1.7281,0.00108043,0.377675,-0.00133188,93,907
389,0.00891666,-0.703081,0.025749,1.7281,0.00108043,0.377675,-0.00133188,80,920
390,0.00891666,-0.703081,0.025749,1.7281,0.00108043,0.377675,-0.00133188,80,920
391,0.00891666,-0.703081,0.025749,1.7281,0.00108043,0.377675,-0.00133188,109,891
392,0.00891666,-0.703081,0.025749,1.7281,0.00108043,0.377675,-0.00133188,95,905
393,0.00891666,-0.703081,0.025749,1.7281,0.00108043,0.377675,-0.00133188,80,920
394,0.00891666,-0.703081,0.025749,1.7281,0.00108043,0.377675,-0.00133188,99,901
395,0.00891666,-0.703081,0.025749,1.7281,0.00108043,0.377675,-0.00133188,99,901
396,0.00891666,-0.703081,0.025749,1.7281,0.00108043,0.377675,-0.00133188,106,894
397,0.00891666,-0.703081,0.025749,1.7281,0.00108043,0.377675,-0.00133188,81,919
398,0.00891666,-0.703081,0.025749,1.7281,0.00108043,0.377675,-0.00133188,111,889
399,0.00891666,-0.703081,0.025749,1.7281,0.00108043,0.377675,-0.00133188,85,915
400,0.00891666,-0.703081,0.025749,1.7281,0.00108043,0.377675,-0.00133188,104,896
401,0.00891666,-0.703081,0.025749,1.7281,0.00108043,0.377675,-0.00133188,121,879
402,0.00754907,-0.703133,0.0239427,1.7281,0.000590391,0.377689,-0.00141099,82,918
403,0.00590813,-0.703196,0.0217754,1.7281,2.43826E-06,0.377707,-0.00150585,82,918
404,0.00453497,-0.703029,0.0199601,1.72839,-0.000481341,0.377893,-0.00157687,107,893
405,0.00289359,-0.703093,0.0177933,1.72839,-0.00106944,0.377911,-0.00167165,114,886
406,0.00152568,-0.703146,0.0159875,1.72839,-0.00155958,0.377927,-0.00175064,88,912
407,-0.000115643,-0.703212,0.0138207,1.72838,-0.00214764,0.377947,-0.00184534,104,896
408,-0.00148351,-0.703266,0.0120149,1.72838,-0.00263774,0.377963,-0.00192428,132,868
409,-0.00312478,-0.703332,0.00984816,1.72838,-0.00322577,0.377984,-0.0020189,108,892
410,-0.0044926,-0.703387,0.00804239,1.72838,-0.00371584,0.378002,-0.00209777,106,894
411,-0.00613381,-0.703455,0.00587573,1.72837,-0.00430382,0.378023,-0.00219232,107,893
412,-0.00750159,-0.70351,0.00407,1.72837,-0.00479386,0.378042,-0.00227113,111,889
413,-0.00914274,-0.703579,0.00190341,1.72836,-0.00538181,0.378065,-0.0023656,82,918
414,-0.0105105,-0.703636,9.77369E-05,1.72836,-0.00587182,0.378084,-0.00244435,82,918
415,-0.0121516,-0.703705,-0.00206879,1.72835,-0.00645972,0.378108,-0.00253874,109,891
416,-0.0135192,-0.703762,-0.0038744,1.72835,-0.0069497,0.378128,-0.00261743,108,892
417,-0.0151603,-0.703833,-0.00604085,1.72834,-0.00753757,0.378153,-0.00271175,113,887
418,-0.0165279,-0.703891,-0.0078464,1.72834,-0.00802753,0.378174,-0.00279037,81,919
419,-0.0181688,-0.703963,-0.0100128,1.72833,-0.00861536,0.3782,-0.00288461,98,902
420,-0.0195364,-0.704022,-0.0118183,1.72833,-0.00910528,0.378222,-0.00296317,310,690
421,-0.0211773,-0.704094,-0.0139845,1.72832,-0.00969308,0.378249,-0.00305733,85,915
422,-0.0225448,-0.704154,-0.0157899,1.72831,-0.010183,0.378272,-0.00313582,112,888
423,-0.0241856,-0.704228,-0.0179561,1.72831,-0.0107707,0.3783,-0.00322991,94,906
424,-0.0255531,-0.704289,-0.0197615,1.7283,-0.0112606,0.378324,-0.00330834,113,887
425,-0.0271938,-0.704363,-0.0219276,1.72829,-0.0118483,0.378353,-0.00340235,88,912
426,-0.0285612,-0.704425,-0.0237328,1.72828,-0.0123382,0.378378,-0.00348072,108,892
427,-0.0302067,-0.704281,-0.025916,1.72857,-0.0129209,0.37858,-0.00356684,111,889
428,-0.0315745,-0.704343,-0.0277207,1.72856,-0.0134109,0.378605,-0.00364514,121,879
429,-0.0332156,-0.70442,-0.0298861,1.72855,-0.0139987,0.378636,-0.00373899,105,895
430,-0.0345832,-0.704483,-0.0316908,1.72854,-0.0144887,0.378663,-0.00381723,84,916
431,-0.0362242,-0.704561,-0.0338561,1.72853,-0.0150765,0.378695,-0.003911,110,890
432,-0.0375918,-0.704625,-0.0356607,1.72852,-0.0155664,0.378722,-0.00398917,284,716
433,-0.0392328,-0.704703,-0.0378259,1.72851,-0.0161542,0.378756,-0.00408287,108,892
434,-0.0406003,-0.704768,-0.0396304,1.7285,-0.0166441,0.378784,-0.00416098,100,900
435,-0.0419678,-0.704834,-0.0414348,1.72849,-0.017134,0.378812,-0.00423906,81,919
436,-0.0436086,-0.704914,-0.0435998,1.72848,-0.0177217,0.378848,-0.00433264,81,919
437,-0.0449761,-0.70498,-0.0454041,1.72847,-0.0182116,0.378877,-0.00441065,95,905
438,-0.0466168,-0.705061,-0.047569,1.72846,-0.0187993,0.378913,-0.00450415,97,903
439,-0.0479841,-0.705128,-0.0493732,1.72845,-0.0192892,0.378943,-0.0045821,108,892
440,-0.0493473,-0.705415,-0.0511558,1.72814,-0.0197834,0.378802,-0.00466782,279,721
441,-0.0509874,-0.705498,-0.053321,1.72813,-0.0203708,0.37884,-0.0047612,108,892
442,-0.0523542,-0.705566,-0.0551254,1.72812,-0.0208605,0.378872,-0.00483906,106,894
443,-0.0539942,-0.705649,-0.0572904,1.7281,-0.0214479,0.37891,-0.00493237,111,889
444,-0.055361,-0.705719,-0.0590947,1.72809,-0.0219376,0.378943,-0.00501016,145,855
445,-0.0567278,-0.705788,-0.060899,1.72808,-0.0224272,0.378976,-0.00508791,85,915
446,-0.0583676,-0.705873,-0.0630637,1.72806,-0.0230146,0.379016,-0.0051811,84,916
447,-0.0597343,-0.705944,-0.0648679,1.72805,-0.0235042,0.37905,-0.0052588,111,889
448,-0.0611009,-0.706014,-0.0666719,1.72804,-0.0239938,0.379084,-0.00533646,107,893
449,-0.0627407,-0.706101,-0.0688365,1.72802,-0.0245811,0.379126,-0.00542953,85,915
450,-0.0641072,-0.706172,-0.0706404,1.72801,-0.0250707,0.379161,-0.00550713,111,889
451,-0.0654737,-0.706244,-0.0724443,1.72799,-0.0255602,0.379196,-0.0055847,883,117
452,-0.0671133,-0.706332,-0.0746086,1.72798,-0.0261476,0.379239,-0.00567765,111,889
453,-0.0684798,-0.706405,-0.0764123,1.72796,-0.0266371,0.379276,-0.00575515,84,916
454,-0.0698461,-0.706478,-0.078216,1.72795,-0.0271266,0.379312,-0.00583262,109,891
455,-0.0714856,-0.706567,-0.08038,1.72793,-0.0277139,0.379357,-0.00592546,127,873
456,-0.0728519,-0.706641,-0.0821835,1.72791,-0.0282034,0.379395,-0.00600286,92,908
457,-0.0742182,-0.706716,-0.0839869,1.7279,-0.0286929,0.379433,-0.00608024,116,884
458,-0.0758575,-0.706806,-0.0861507,1.72788,-0.0292802,0.379479,-0.00617295,129,871
459,-0.0772236,-0.706882,-0.087954,1.72786,-0.0297697,0.379518,-0.00625026,83,917
460,-0.0785898,-0.706957,-0.0897572,1.72785,-0.0302591,0.379557,-0.00632754,111,889
461,-0.0799559,-0.707033,-0.0915603,1.72783,-0.0307486,0.379597,-0.00640478,107,893
462,-0.0815915,-0.707345,-0.0936945,1.72752,-0.031339,0.379473,-0.00650496,450,550
463,-0.0829571,-0.707422,-0.0954979,1.7275,-0.0318283,0.379514,-0.00658214,107,893
464,-0.0843226,-0.707499,-0.0973012,1.72748,-0.0323176,0.379554,-0.00665929,83,917
465,-0.0856882,-0.707577,-0.0991044,1.72746,-0.0328068,0.379596,-0.00673641,82,918
466,-0.0873266,-0.707671,-0.101268,1.72744,-0.0333938,0.379646,-0.00682881,86,914
467,-0.088692,-0.70775,-0.103071,1.72742,-0.0338831,0.379688,-0.00690586,84,916
468,-0.0900573,-0.707828,-0.104874,1.7274,-0.0343723,0.379731,-0.00698288,84,916
469,-0.0914227,-0.707908,-0.106677,1.72739,-0.0348616,0.379774,-0.00705986,114,886
470,-0.0927879,-0.707987,-0.10848,1.72737,-0.0353508,0.379817,-0.00713682,82,918
471,-0.0944261,-0.708084,-0.110642,1.72734,-0.0359377,0.37987,-0.00722903,84,916
472,-0.0957913,-0.708164,-0.112445,1.72732,-0.0364269,0.379914,-0.00730592,111,889
473,-0.0971535,-0.708464,-0.114215,1.72701,-0.0369189,0.379786,-0.0073904,82,918
474,-0.0985182,-0.708545,-0.116018,1.72699,-0.0374079,0.379831,-0.00746723,82,918
475,-0.0998828,-0.708626,-0.11782,1.72697,-0.037897,0.379877,-0.00754402,105,895
476,-0.101247,-0.708708,-0.119623,1.72695,-0.038386,0.379923,-0.00762078,82,918
477,-0.102612,-0.708791,-0.121426,1.72693,-0.038875,0.379969,-0.00769752,81,919
478,-0.103976,-0.708874,-0.123228,1.72691,-0.039364,0.380015,-0.00777422,83,917
479,-0.105614,-0.708974,-0.125391,1.72688,-0.0399507,0.380072,-0.00786612,80,920
480,-0.106978,-0.709058,-0.127193,1.72686,-0.0404397,0.38012,-0.00794275,94,906
481,-0.108342,-0.709142,-0.128995,1.72684,-0.0409287,0.380168,-0.00801935,83,917
482,-0.109707,-0.709226,-0.130797,1.72681,-0.0414177,0.380216,-0.00809592,113,887
483,-0.111069,-0.709528,-0.132563,1.7265,-0.041909,0.380091,-0.00818004,108,892
484,-0.112432,-0.709614,-0.134365,1.72648,-0.0423978,0.38014,-0.00825655,123,877
485,-0.113796,-0.709699,-0.136168,1.72645,-0.0428866,0.38019,-0.00833302,80,920
486,-0.11516,-0.709785,-0.13797,1.72643,-0.0433754,0.38024,-0.00840947,103,897
487,-0.116523,-0.709871,-0.139772,1.72641,-0.0438642,0.38029,-0.00848588,92,908
488,-0.117887,-0.709958,-0.141574,1.72638,-0.044353,0.380341,-0.00856226,87,913
489,-0.119251,-0.710045,-0.143375,1.72636,-0.0448418,0.380392,-0.00863861,81,919
490,-0.120612,-0.71035,-0.145139,1.72604,-0.0453326,0.38027,-0.00872248,82,918
491,-0.121975,-0.710438,-0.146941,1.72601,-0.0458212,0.380321,-0.00879876,112,888
492,-0.123338,-0.710526,-0.148743,1.72599,-0.0463098,0.380374,-0.00887502,112,888
493,-0.124701,-0.710614,-0.150544,1.72596,-0.0467984,0.380426,-0.00895124,110,890
494,-0.126064,-0.710703,-0.152346,1.72594,-0.047287,0.380479,-0.00902743,80,920
495,-0.127427,-0.710793,-0.154148,1.72591,-0.0477756,0.380533,-0.00910359,86,914
496,-0.128789,-0.710882,-0.155949,1.72589,-0.0482642,0.380586,-0.00917972,81,919
497,-0.130152,-0.710972,-0.15775,1.72586,-0.0487528,0.380641,-0.00925581,82,918
498,-0.131513,-0.71128,-0.159511,1.72554,-0.049243,0.380521,-0.00933939,79,921
499,-0.132875,-0.711371,-0.161312,1.72551,-0.0497314,0.380576,-0.00941542,100,900
500,-0.133965,-0.711443,-0.162753,1.72549,-0.0501223,0.38062,-0.0094763,97,903
501,-0.135327,-0.711535,-0.164555,1.72546,-0.0506107,0.380676,-0.00955228,83,917
