BatekPetr/FinalProject/results/joints_M_Targ_Pts.csv
time[s], Q0, Q1, Q2, Q3, Q4, Q5, Q6, Time for Inverse kinematics[s], Time for move[ms]
0, 0, -0.65, 0, 1.8, 0, 0.42, 0, 0, 0
0.005, 0, -0.65, 0, 1.8, 0, 0.42, 0, 0, 0, 5
0.01, -0.00785398, -0.641797, -0.015708, 1.79543, -0.00784058, 0.412365, -0.00354645, 0, 0, 5
0.015, -0.015708, -0.633594, -0.0314159, 1.79058, -0.0162283, 0.40288, -0.00645834, 0, 0, 5
0.02, -0.0235619, -0.625391, -0.0471239, 1.78442, -0.0253972, 0.392408, -0.00948396, 0, 0, 5
0.025, -0.0314159, -0.617188, -0.0628319, 1.77636, -0.0354485, 0.381936, -0.0132831, 0, 0, 5
0.03, -0.0392699, -0.608985, -0.0785398, 1.766, -0.0430102, 0.371464, -0.0148759, 0, 0, 5
0.035, -0.0471239, -0.600782, -0.0942478, 1.75352, -0.0494021, 0.360992, -0.0163367, 0, 0, 5
0.04, -0.0549779, -0.592579, -0.109956, 1.74104, -0.0554995, 0.35052, -0.0187084, 0, 0, 5
0.045, -0.0628319, -0.584376, -0.125664, 1.72856, -0.0606682, 0.340048, -0.0218614, 0, 0, 5
0.05, -0.0706858, -0.576173, -0.141372, 1.71608, -0.0628684, 0.329576, -0.0238487, 0, 0, 5
0.055, -0.0785398, -0.56797, -0.15708, 1.71178, -0.0864303, 0.319104, -0.0552646, 0, 0, 5
0.06, -0.0863938, -0.559766, -0.172788, 1.71882, -0.109992, 0.308632, -0.0866806, 0, 0, 5
0.065, -0.0942478, -0.551563, -0.16866, 1.7313, -0.133554, 0.29816, -0.118096, 0, 0, 5
0.07, -0.102102, -0.54336, -0.152952, 1.74378, -0.157116, 0.294515, -0.149512, 0, 0, 5
0.075, -0.109956, -0.535157, -0.137244, 1.75626, -0.180678, 0.297281, -0.180928, 0, 0, 5
0.08, -0.11781, -0.526954, -0.121536, 1.76874, -0.20424, 0.307753, -0.212344, 0, 0, 5
0.085, -0.125664, -0.518751, -0.105828, 1.78122, -0.227802, 0.318225, -0.24376, 0, 0, 5
0.09, -0.133518, -0.515614, -0.0901202, 1.7937, -0.251364, 0.328697, -0.275176, 0, 0, 5
0.095, -0.141372, -0.523817, -0.0744122, 1.80618, -0.274926, 0.339169, -0.306592, 0, 0, 5
0.1, -0.149226, -0.53202, -0.0587042, 1.81866, -0.298488, 0.349641, -0.338008, 0, 0, 5
0.105, -0.15708, -0.540223, -0.0429963, 1.81681, -0.32205, 0.356941, -0.369424, 0, 0, 5
0.11, -0.164934, -0.548426, -0.0272883, 1.80433, -0.345612, 0.351963, -0.40084, 0, 0, 5
0.115, -0.169048, -0.556629, -0.0115804, 1.79734, -0.369174, 0.34581, -0.432256, 0, 0, 5
0.12, -0.161194, -0.564832, 0.0041276, 1.78852, -0.392736, 0.335338, -0.463672, 0, 0, 5
0.125, -0.15334, -0.573036, 0.0198356, 1.78448, -0.416298, 0.324866, -0.495088, 0, 0, 5
0.13, -0.145486, -0.581239, 0.0355435, 1.78548, -0.432576, 0.314394, -0.521464, 0, 0, 5
0.135, -0.137632, -0.586625, 0.0512515, 1.78181, -0.423778, 0.303923, -0.522976, 0, 0, 5
0.14, -0.129778, -0.586001, 0.0669595, 1.77336, -0.415507, 0.293451, -0.524783, 0, 0, 5
0.145, -0.121924, -0.578671, 0.0826674, 1.76088, -0.406748, 0.282979, -0.525761, 0, 0, 5
0.15, -0.11407, -0.570468, 0.0983754, 1.7484, -0.400144, 0.272507, -0.528541, 0, 0, 5
0.155, -0.106216, -0.578671, 0.114083, 1.74864, -0.395186, 0.262035, -0.532864, 0, 0, 5
0.16, -0.0983624, -0.586874, 0.129791, 1.75676, -0.392162, 0.256686, -0.537229, 0, 0, 5
0.165, -0.0905084, -0.592338, 0.145499, 1.76292, -0.387919, 0.253306, -0.538037, 0, 0, 5
0.17, -0.0826544, -0.595003, 0.161207, 1.76638, -0.38932, 0.251134, -0.54235, 0, 0, 5
0.175, -0.0776011, -0.595602, 0.167523, 1.7675, -0.388123, 0.25048, -0.542058, 0, 0, 5
0.18, -0.0780874, -0.595775, 0.167753, 1.76771, -0.389442, 0.250631, -0.543368, 0, 0, 5
0.185, -0.077908, -0.594384, 0.167484, 1.7667, -0.388745, 0.249855, -0.542662, 0, 0, 5
0.19, -0.077353, -0.596422, 0.167176, 1.76786, -0.387092, 0.250845, -0.541004, 0, 0, 5
0.195, -0.0772819, -0.596786, 0.167183, 1.76808, -0.386945, 0.251019, -0.540861, 0, 0, 5
0.2, -0.0772107, -0.59715, 0.167191, 1.76829, -0.386799, 0.251193, -0.540717, 0, 0, 5
0.205, -0.0850647, -0.5918, 0.163604, 1.77155, -0.410361, 0.255233, -0.572133, 0, 0, 5
0.21, -0.0929187, -0.586139, 0.155737, 1.7756, -0.433923, 0.262374, -0.603549, 0, 0, 5
0.215, -0.100773, -0.580991, 0.14603, 1.78025, -0.457484, 0.272468, -0.634965, 0, 0, 5
0.22, -0.108627, -0.572788, 0.134805, 1.78206, -0.481046, 0.28294, -0.666381, 0, 0, 5
0.225, -0.116481, -0.56694, 0.12403, 1.78637, -0.504608, 0.293412, -0.697797, 0, 0, 5
0.23, -0.124335, -0.558737, 0.138587, 1.77389, -0.52817, 0.303884, -0.729213, 0, 0, 5
0.235, -0.132189, -0.56694, 0.122879, 1.78637, -0.551732, 0.293412, -0.760629, 0, 0, 5
0.24, -0.140043, -0.575143, 0.107171, 1.79885, -0.575294, 0.28294, -0.792045, 0, 0, 5
0.245, -0.147897, -0.583346, 0.0914633, 1.81133, -0.598856, 0.272468, -0.823461, 0, 0, 5
0.25, -0.140043, -0.591549, 0.0757553, 1.82381, -0.622418, 0.261996, -0.854876, 0, 0, 5
