BatekPetr/FinalProject/results/joints_1_Targ_Pt.csv
time[s], Q0, Q1, Q2, Q3, Q4, Q5, Q6, Time for Inverse kinematics[s], Time for move[ms]
0, 0, -0.65, 0, 1.8, 0, 0.42, 0, 0, 0
0.3, 0.0156713, -0.649182, 0.0178234, 1.80005, 0.00666367, 0.419713, 0.00186212, 123, 177
0.6, 0.0136233, -0.649355, 0.0155007, 1.80005, 0.00579411, 0.419773, 0.00162264, 124, 176
0.9, 0.0118675, -0.649503, 0.0135093, 1.80005, 0.00504858, 0.419824, 0.00141729, 125, 175
1.2, 0.0101117, -0.649651, 0.0115181, 1.80005, 0.0043031, 0.419875, 0.00121203, 126, 174
1.5, 0.00835603, -0.649801, 0.00952702, 1.80004, 0.00355765, 0.419927, 0.00100685, 143, 157
1.8, 0.00689266, -0.649925, 0.0078674, 1.80004, 0.00293628, 0.41997, 0.000835791, 123, 177
2.1, 0.00513707, -0.650076, 0.0058765, 1.80003, 0.00219091, 0.420022, 0.000630761, 122, 178
2.4, 0.00338153, -0.650228, 0.00388572, 1.80002, 0.00144558, 0.420074, 0.000425813, 124, 176
2.7, 0.00162605, -0.65038, 0.00189507, 1.80001, 0.000700292, 0.420126, 0.000220948, 123, 177
3, 0.000145873, -0.65009, 0.000191417, 1.80062, 0.00011584, 0.420545, 9.72737e-05, 124, 176
3.3, -0.00160185, -0.650452, -0.00177586, 1.8003, -0.000648306, 0.420411, -0.00013102, 122, 178
3.6, -0.00335765, -0.650606, -0.00376587, 1.80029, -0.0013938, 0.420464, -0.000335684, 121, 179
3.9, -0.00510462, -0.650969, -0.00573233, 1.79997, -0.00215739, 0.420329, -0.000563749, 123, 177
4.2, -0.00656759, -0.651098, -0.00739116, 1.79995, -0.00277848, 0.420374, -0.000734278, 123, 177
4.5, -0.00833162, -0.651046, -0.00940529, 1.80024, -0.00350547, 0.420615, -0.000915202, 122, 178
4.8, -0.0100782, -0.651411, -0.0113702, 1.79992, -0.00426876, 0.420482, -0.001143, 122, 178
5.1, -0.0118332, -0.651569, -0.0133598, 1.7999, -0.00501369, 0.420536, -0.00134722, 122, 178
5.4, -0.0135881, -0.651727, -0.0153493, 1.79988, -0.00575856, 0.42059, -0.00155135, 175, 125
5.7, -0.0150508, -0.651859, -0.0170076, 1.79986, -0.00637945, 0.420636, -0.00172154, 122, 178
6, -0.0165134, -0.651991, -0.0186658, 1.79984, -0.00700031, 0.420681, -0.00189167, 123, 177
6.3, -0.0185601, -0.652179, -0.0209857, 1.79981, -0.00786886, 0.420746, -0.00212934, 123, 177
6.6, -0.0200318, -0.652105, -0.0226705, 1.8001, -0.00847192, 0.420979, -0.00227587, 125, 175
6.9, -0.0217869, -0.652267, -0.0246591, 1.80007, -0.00921687, 0.421035, -0.00247963, 123, 177
7.2, -0.0235324, -0.652637, -0.0266197, 1.79974, -0.0099793, 0.420903, -0.00270671, 153, 147
7.5, -0.0252773, -0.653007, -0.0285801, 1.7994, -0.0107413, 0.420771, -0.00293364, 124, 176
7.8, -0.0264564, -0.652908, -0.0299349, 1.79969, -0.0112201, 0.420996, -0.00304603, 122, 178
8.1, -0.0285025, -0.653101, -0.0322538, 1.79965, -0.0120883, 0.421062, -0.00328312, 122, 178
8.4, -0.0299551, -0.653445, -0.0338818, 1.79932, -0.0127262, 0.420921, -0.00347611, 122, 178
8.7, -0.0320004, -0.653639, -0.0362007, 1.79928, -0.0135938, 0.420988, -0.00371295, 124, 176
9, -0.0337539, -0.653806, -0.0381886, 1.79924, -0.0143377, 0.421045, -0.00391604, 122, 178
9.3, -0.0349329, -0.653709, -0.0395449, 1.79953, -0.0148167, 0.42127, -0.00402818, 123, 177
9.6, -0.0366768, -0.654084, -0.0415015, 1.79918, -0.0155779, 0.42114, -0.00425449, 123, 177
9.9, -0.03843, -0.654252, -0.0434891, 1.79914, -0.0163216, 0.421197, -0.00445734, 123, 177
10.2, -0.0401831, -0.654421, -0.0454764, 1.7991, -0.0170653, 0.421255, -0.0046601, 120, 180
10.5, -0.0419362, -0.654591, -0.0474635, 1.79906, -0.0178089, 0.421313, -0.00486277, 123, 177
10.8, -0.0433872, -0.654939, -0.0490875, 1.79872, -0.0184456, 0.421174, -0.00505509, 123, 177
11.1, -0.0448579, -0.654874, -0.0507766, 1.79899, -0.0190483, 0.42141, -0.00520063, 124, 176
11.4, -0.0466004, -0.655252, -0.0527301, 1.79864, -0.0198084, 0.421281, -0.00542634, 122, 178
11.7, -0.0483525, -0.655425, -0.0547169, 1.79859, -0.0205514, 0.42134, -0.00562864, 122, 178
12, -0.0501045, -0.655598, -0.0567034, 1.79854, -0.0212944, 0.421399, -0.00583085, 122, 178
12.3, -0.0518565, -0.655771, -0.0586898, 1.79849, -0.0220373, 0.421458, -0.00603296, 122, 178
12.6, -0.0533063, -0.656123, -0.0603108, 1.79815, -0.0226731, 0.421319, -0.00622478, 123, 177
12.9, -0.0550575, -0.656298, -0.062297, 1.79809, -0.0234155, 0.421379, -0.00642668, 122, 178
13.2, -0.0568086, -0.656473, -0.0642831, 1.79804, -0.0241578, 0.421439, -0.0066285, 126, 174
13.5, -0.0576847, -0.65656, -0.065277, 1.79802, -0.0245293, 0.421469, -0.00672954, 123, 177
13.8, -0.0597269, -0.656767, -0.0675931, 1.79795, -0.0253949, 0.42154, -0.00696459, 121, 179
14.1, -0.0614777, -0.656945, -0.0695786, 1.7979, -0.026137, 0.4216, -0.00716616, 122, 178
14.4, -0.0629263, -0.657299, -0.0711966, 1.79754, -0.0267719, 0.421462, -0.00735748, 123, 177
14.7, -0.0646763, -0.657478, -0.0731821, 1.79748, -0.0275136, 0.421523, -0.00755883, 124, 176
15, -0.066135, -0.657627, -0.0748369, 1.79743, -0.0281318, 0.421574, -0.00772671, 124, 176
15.3, -0.0678848, -0.657807, -0.0768219, 1.79737, -0.0288734, 0.421635, -0.00792789, 123, 177
15.6, -0.0687603, -0.657896, -0.0778154, 1.79734, -0.0292444, 0.421666, -0.00802862, 123, 177
15.9, -0.0710808, -0.658346, -0.080421, 1.79695, -0.030248, 0.421561, -0.00831923, 123, 177
16.2, -0.0722473, -0.658466, -0.081745, 1.79691, -0.0307423, 0.421601, -0.0084534, 155, 145
16.5, -0.0737051, -0.658617, -0.0833993, 1.79686, -0.03136, 0.421653, -0.00862091, 120, 180
16.8, -0.0757448, -0.658832, -0.0857136, 1.79678, -0.032224, 0.421726, -0.00885486, 121, 179
17.1, -0.0771912, -0.659191, -0.0873273, 1.79642, -0.0328573, 0.421589, -0.00904542, 122, 178
17.4, -0.0786595, -0.659138, -0.0890219, 1.79667, -0.0334588, 0.42183, -0.00918948, 122, 178
17.7, -0.0803965, -0.659529, -0.0909646, 1.79629, -0.0342151, 0.421705, -0.00941308, 122, 178
18, -0.0809686, -0.659795, -0.0915854, 1.79596, -0.0344779, 0.421536, -0.00950335, 123, 177
18.3, -0.0830181, -0.659808, -0.0939411, 1.79618, -0.0353253, 0.4218, -0.00971367, 122, 178
18.6, -0.0850448, -0.660232, -0.0962121, 1.79579, -0.0362038, 0.421685, -0.00997005, 122, 178
18.9, -0.0856165, -0.6605, -0.0968317, 1.79546, -0.0364663, 0.421517, -0.0100602, 124, 176
19.2, -0.0873744, -0.660482, -0.0988581, 1.79569, -0.0371902, 0.421771, -0.0102371, 122, 178
19.5, -0.0891095, -0.660876, -0.100798, 1.79531, -0.037945, 0.421646, -0.0104601, 157, 143
19.8, -0.0908556, -0.661065, -0.102781, 1.79523, -0.0386841, 0.42171, -0.0106598, 122, 178
20.1, -0.092892, -0.661288, -0.105094, 1.79514, -0.039546, 0.421786, -0.0108925, 121, 179
20.4, -0.0937539, -0.661587, -0.106042, 1.79479, -0.0399311, 0.421629, -0.0110157, 123, 177
20.7, -0.0952202, -0.661541, -0.107739, 1.79503, -0.0405316, 0.421872, -0.0111589, 125, 175
21, -0.0966635, -0.661905, -0.109347, 1.79466, -0.0411627, 0.421737, -0.0113484, 122, 178
21.3, -0.0984084, -0.662097, -0.111329, 1.79458, -0.0419011, 0.421802, -0.0115477, 122, 178
21.6, -0.0998509, -0.662463, -0.112935, 1.7942, -0.0425316, 0.421667, -0.011737, 123, 177
21.9, -0.102175, -0.662723, -0.115577, 1.79408, -0.0435146, 0.421756, -0.0120019, 125, 175
22.2, -0.102757, -0.662787, -0.116238, 1.79406, -0.0437609, 0.421778, -0.0120684, 122, 178
22.5, -0.103327, -0.663056, -0.116853, 1.79372, -0.0440222, 0.42161, -0.0121581, 121, 179
22.8, -0.10594, -0.663353, -0.119823, 1.79359, -0.0451272, 0.42171, -0.0124557, 121, 179
23.1, -0.107381, -0.66372, -0.121427, 1.79321, -0.0457566, 0.421576, -0.0126446, 121, 179
23.4, -0.109136, -0.663712, -0.123456, 1.79342, -0.0464787, 0.421833, -0.0128201, 121, 179
23.7, -0.109996, -0.664014, -0.1244, 1.79307, -0.0468624, 0.421676, -0.0129427, 122, 178
24, -0.112028, -0.664246, -0.12671, 1.79296, -0.0477214, 0.421755, -0.0131739, 124, 176
24.3, -0.113178, -0.664581, -0.127983, 1.79259, -0.0482273, 0.42161, -0.0133293, 122, 178
24.6, -0.114629, -0.664747, -0.129634, 1.79251, -0.0488411, 0.421666, -0.0134947, 123, 177
24.9, -0.116081, -0.664912, -0.131285, 1.79244, -0.0494547, 0.421722, -0.0136599, 122, 178
25.2, -0.118388, -0.665386, -0.133874, 1.792, -0.0504494, 0.421624, -0.0139463, 122, 178
25.5, -0.118969, -0.665451, -0.134535, 1.79197, -0.0506949, 0.421646, -0.0140124, 122, 178
25.8, -0.121288, -0.665722, -0.137174, 1.79184, -0.0516747, 0.421738, -0.0142756, 121, 179
26.1, -0.122159, -0.665822, -0.138165, 1.79179, -0.0520428, 0.421772, -0.0143747, 122, 178
26.4, -0.123307, -0.666159, -0.139434, 1.79141, -0.0525475, 0.421628, -0.0145296, 123, 177
26.7, -0.125047, -0.666362, -0.141414, 1.79131, -0.0532824, 0.421697, -0.0147271, 123, 177
27, -0.126484, -0.666736, -0.143012, 1.79092, -0.0539092, 0.421564, -0.0149148, 123, 177
27.3, -0.127933, -0.666905, -0.144662, 1.79083, -0.0545214, 0.421622, -0.0150794, 122, 178
27.6, -0.129948, -0.667349, -0.146918, 1.7904, -0.0553916, 0.421513, -0.0153321, 125, 175
27.9, -0.130817, -0.667451, -0.147908, 1.79035, -0.0557589, 0.421547, -0.0154308, 123, 177
28.2, -0.132844, -0.667692, -0.150217, 1.79022, -0.0566146, 0.421629, -0.0156604, 123, 177
28.5, -0.133713, -0.667794, -0.151207, 1.79017, -0.0569818, 0.421664, -0.0157591, 121, 179
28.8, -0.135727, -0.668241, -0.15346, 1.78974, -0.057851, 0.421556, -0.0160113, 268, 32
29.1, -0.136306, -0.668309, -0.154121, 1.7897, -0.0580958, 0.421579, -0.0160771, 122, 178
29.4, -0.137741, -0.668685, -0.155715, 1.7893, -0.0587208, 0.421448, -0.0162641, 123, 177
29.7, -0.140054, -0.668966, -0.158352, 1.78915, -0.0596968, 0.421543, -0.0165255, 122, 178
30, -0.141199, -0.669308, -0.159616, 1.78877, -0.0601991, 0.4214, -0.0166795, 122, 178
30.3, -0.141778, -0.669377, -0.160276, 1.78873, -0.0604436, 0.421423, -0.0167452, 121, 179
30.6, -0.142344, -0.66965, -0.16088, 1.78838, -0.0607017, 0.421256, -0.0168339, 123, 177
30.9, -0.142621, -0.669887, -0.161154, 1.78806, -0.0608378, 0.421077, -0.0168898, 123, 177
31.2, -0.14145, -0.669957, -0.159775, 1.78782, -0.0603625, 0.42084, -0.0167812, 121, 179
31.5, -0.142593, -0.670299, -0.161039, 1.78744, -0.0608638, 0.420697, -0.0169351, 149, 151
31.8, -0.143159, -0.670572, -0.161643, 1.78709, -0.0611215, 0.42053, -0.0170237, 177, 123
32.1, -0.143737, -0.670642, -0.162304, 1.78705, -0.0613653, 0.420554, -0.0170892, 122, 178
32.4, -0.143146, -0.670777, -0.161586, 1.78678, -0.061135, 0.42034, -0.0170467, 123, 177
32.7, -0.143133, -0.670981, -0.16153, 1.78648, -0.0611489, 0.42015, -0.0170698, 122, 178
33, -0.144275, -0.671324, -0.162794, 1.78609, -0.0616492, 0.420007, -0.0172234, 123, 177
33.3, -0.143974, -0.671494, -0.162406, 1.7858, -0.0615411, 0.419805, -0.0172137, 123, 177
33.6, -0.144839, -0.671598, -0.163397, 1.78575, -0.061906, 0.41984, -0.0173118, 125, 175
33.9, -0.145404, -0.671872, -0.164001, 1.7854, -0.062163, 0.419674, -0.0174003, 151, 149
34.2, -0.145391, -0.672075, -0.163944, 1.78509, -0.0621767, 0.419483, -0.0174234, 123, 177
34.5, -0.1445, -0.672381, -0.162837, 1.78453, -0.0618392, 0.419068, -0.0173712, 122, 178
34.8, -0.143622, -0.672482, -0.161786, 1.78428, -0.0614881, 0.418842, -0.0172959, 121, 179
35.1, -0.145637, -0.672731, -0.164098, 1.78415, -0.0623362, 0.418927, -0.0175237, 174, 126
35.4, -0.145625, -0.672935, -0.164041, 1.78384, -0.06235, 0.418737, -0.0175468, 122, 178
35.7, -0.145036, -0.67307, -0.163321, 1.78357, -0.0621207, 0.418523, -0.0175043, 124, 176
36, -0.144146, -0.673375, -0.162213, 1.78301, -0.0617839, 0.418108, -0.0174522, 126, 174
36.3, -0.144722, -0.673445, -0.162875, 1.78297, -0.0620263, 0.418132, -0.0175176, 122, 178
36.6, -0.14586, -0.67379, -0.16414, 1.78259, -0.062524, 0.41799, -0.0176708, 123, 177
36.9, -0.146135, -0.674029, -0.164414, 1.78226, -0.0626588, 0.417811, -0.0177264, 121, 179
37.2, -0.145834, -0.674198, -0.164025, 1.78197, -0.0625512, 0.417609, -0.0177168, 123, 177
37.5, -0.14611, -0.674437, -0.164299, 1.78165, -0.0626859, 0.417431, -0.0177724, 121, 179
37.8, -0.145234, -0.674537, -0.163246, 1.78139, -0.0623361, 0.417206, -0.0176972, 164, 136
38.1, -0.14637, -0.674883, -0.164513, 1.78101, -0.0628326, 0.417064, -0.0178503, 123, 177
38.4, -0.146932, -0.675157, -0.165117, 1.78067, -0.0630878, 0.416898, -0.0179384, 122, 178
38.7, -0.146345, -0.675291, -0.164396, 1.7804, -0.0628595, 0.416685, -0.017896, 122, 178
39, -0.146045, -0.67546, -0.164007, 1.78011, -0.0627522, 0.416483, -0.0178863, 125, 175
39.3, -0.146319, -0.675699, -0.164281, 1.77978, -0.0628865, 0.416305, -0.0179419, 122, 178
39.6, -0.14688, -0.675974, -0.164886, 1.77944, -0.0631412, 0.416139, -0.01803, 121, 179
39.9, -0.147442, -0.676248, -0.16549, 1.77909, -0.0633957, 0.415974, -0.018118, 124, 176
40.2, -0.147716, -0.676487, -0.165764, 1.77876, -0.0635297, 0.415796, -0.0181735, 122, 178
40.5, -0.147416, -0.676656, -0.165374, 1.77847, -0.0634227, 0.415594, -0.0181638, 120, 180
40.8, -0.147977, -0.676931, -0.165979, 1.77813, -0.0636768, 0.415428, -0.0182518, 124, 176
41.1, -0.146243, -0.676929, -0.163926, 1.77794, -0.0629663, 0.415169, -0.0180782, 124, 176
41.4, -0.147947, -0.677349, -0.165855, 1.77752, -0.0637002, 0.415053, -0.0182955, 123, 177
41.7, -0.148507, -0.677624, -0.16646, 1.77717, -0.063954, 0.414887, -0.0183834, 123, 177
42, -0.148781, -0.677864, -0.166734, 1.77684, -0.0640876, 0.41471, -0.0184388, 121, 179
42.3, -0.149055, -0.678103, -0.167007, 1.77652, -0.0642211, 0.414532, -0.0184942, 124, 176
42.6, -0.149042, -0.678307, -0.166949, 1.77621, -0.0642345, 0.414343, -0.0185171, 173, 127
42.9, -0.148743, -0.678475, -0.166558, 1.77592, -0.0641278, 0.414141, -0.0185075, 122, 178
43.2, -0.149017, -0.678715, -0.166831, 1.7756, -0.0642611, 0.413964, -0.0185628, 121, 179
43.5, -0.149004, -0.678919, -0.166773, 1.77529, -0.0642745, 0.413774, -0.0185857, 122, 178
43.8, -0.148706, -0.679088, -0.166381, 1.775, -0.0641679, 0.413572, -0.0185761, 130, 170
44.1, -0.148979, -0.679327, -0.166655, 1.77467, -0.0643011, 0.413395, -0.0186314, 121, 179
44.4, -0.148967, -0.679531, -0.166596, 1.77437, -0.0643145, 0.413206, -0.0186543, 121, 179
44.7, -0.149227, -0.679975, -0.166811, 1.77374, -0.0644608, 0.412839, -0.0187324, 121, 179
45, -0.149215, -0.680179, -0.166752, 1.77343, -0.0644741, 0.41265, -0.0187552, 122, 178
45.3, -0.148631, -0.680312, -0.166028, 1.77316, -0.0642481, 0.412437, -0.018713, 121, 179
45.6, -0.149189, -0.680588, -0.166634, 1.77282, -0.0645003, 0.412272, -0.0188006, 123, 177
45.9, -0.149461, -0.680828, -0.166907, 1.77249, -0.064633, 0.412095, -0.0188559, 122, 178
46.2, -0.149449, -0.681032, -0.166848, 1.77218, -0.0646463, 0.411906, -0.0188787, 122, 178
46.5, -0.149437, -0.681236, -0.166789, 1.77188, -0.0646596, 0.411717, -0.0189015, 121, 179
46.8, -0.149709, -0.681476, -0.167063, 1.77155, -0.0647921, 0.41154, -0.0189567, 123, 177
47.1, -0.149697, -0.68168, -0.167004, 1.77124, -0.0648054, 0.411351, -0.0189795, 187, 113
47.4, -0.149399, -0.681849, -0.166612, 1.77096, -0.0646993, 0.411149, -0.0189698, 121, 179
47.7, -0.149387, -0.682053, -0.166553, 1.77065, -0.0647126, 0.41096, -0.0189926, 122, 178
48, -0.149374, -0.682257, -0.166494, 1.77034, -0.0647258, 0.410772, -0.0190154, 154, 146
48.3, -0.149646, -0.682497, -0.166767, 1.77002, -0.0648581, 0.410595, -0.0190705, 122, 178
48.6, -0.149622, -0.682906, -0.166649, 1.76941, -0.0648845, 0.410217, -0.0191161, 122, 178
48.9, -0.149893, -0.683146, -0.166923, 1.76908, -0.0650166, 0.410041, -0.0191712, 120, 180
49.2, -0.149881, -0.68335, -0.166863, 1.76878, -0.0650298, 0.409852, -0.0191939, 122, 178
49.5, -0.149869, -0.683554, -0.166804, 1.76847, -0.065043, 0.409663, -0.0192167, 123, 177
49.8, -0.15014, -0.683795, -0.167078, 1.76814, -0.0651749, 0.409487, -0.0192717, 126, 174
50.1, -0.150424, -0.683831, -0.167411, 1.76813, -0.0652936, 0.409499, -0.0193041, 155, 145
50.4, -0.150115, -0.684204, -0.166958, 1.76753, -0.0652011, 0.40911, -0.0193172, 123, 177
50.7, -0.149819, -0.684372, -0.166565, 1.76725, -0.0650956, 0.408909, -0.0193075, 123, 177
51, -0.149523, -0.684541, -0.166172, 1.76696, -0.0649901, 0.408708, -0.0192978, 120, 180
51.3, -0.15036, -0.684854, -0.167112, 1.7666, -0.0653582, 0.408557, -0.0194172, 122, 178
51.6, -0.149768, -0.685192, -0.166325, 1.76602, -0.0651474, 0.408155, -0.0193979, 122, 178
51.9, -0.149768, -0.685192, -0.166325, 1.76602, -0.0651474, 0.408155, -0.0193979, 326, 0
52.2, -0.149756, -0.685396, -0.166265, 1.76572, -0.0651606, 0.407967, -0.0194206, 155, 145
52.5, -0.150593, -0.68571, -0.167206, 1.76536, -0.0655281, 0.407816, -0.0195398, 150, 150
52.8, -0.150297, -0.685878, -0.166812, 1.76507, -0.0654228, 0.407615, -0.0195302, 128, 172
53.1, -0.149423, -0.68618, -0.165689, 1.76451, -0.0650941, 0.407202, -0.0194784, 146, 154
53.4, -0.14941, -0.686385, -0.16563, 1.76421, -0.0651072, 0.407013, -0.0195011, 122, 178
53.7, -0.149681, -0.686625, -0.165904, 1.76388, -0.0652382, 0.406838, -0.019556, 122, 178
54, -0.149668, -0.68683, -0.165844, 1.76358, -0.0652513, 0.406649, -0.0195786, 122, 178
54.3, -0.150221, -0.687107, -0.166453, 1.76324, -0.0655001, 0.406486, -0.0196656, 122, 178
54.6, -0.150209, -0.687312, -0.166393, 1.76293, -0.0655131, 0.406298, -0.0196882, 122, 178
54.9, -0.149914, -0.68748, -0.165998, 1.76264, -0.0654082, 0.406098, -0.0196786, 150, 150
55.2, -0.150184, -0.687721, -0.166272, 1.76232, -0.0655389, 0.405922, -0.0197334, 122, 178
55.5, -0.149607, -0.687854, -0.165543, 1.76205, -0.0653162, 0.405709, -0.0196914, 123, 177
55.8, -0.149876, -0.688095, -0.165818, 1.76173, -0.0654469, 0.405534, -0.0197462, 122, 178
56.1, -0.149287, -0.688432, -0.165028, 1.76116, -0.0652374, 0.405133, -0.0197268, 121, 179
56.4, -0.149275, -0.688637, -0.164968, 1.76085, -0.0652505, 0.404945, -0.0197494, 121, 179
56.7, -0.149263, -0.688841, -0.164908, 1.76055, -0.0652634, 0.404757, -0.0197719, 122, 178
57, -0.149251, -0.689046, -0.164848, 1.76024, -0.0652764, 0.40457, -0.0197945, 123, 177
57.3, -0.149801, -0.689324, -0.165458, 1.7599, -0.065524, 0.404407, -0.0198814, 123, 177
57.6, -0.149226, -0.689456, -0.164727, 1.75963, -0.065302, 0.404194, -0.0198393, 122, 178
57.9, -0.149495, -0.689698, -0.165002, 1.75931, -0.0654323, 0.404019, -0.0198941, 122, 178
58.2, -0.148919, -0.68983, -0.164271, 1.75904, -0.0652105, 0.403806, -0.0198521, 121, 179
58.5, -0.148895, -0.69024, -0.164151, 1.75843, -0.0652364, 0.403431, -0.0198971, 124, 176
58.8, -0.149457, -0.690314, -0.164821, 1.75839, -0.0654706, 0.403457, -0.0199615, 121, 179
59.1, -0.148882, -0.690446, -0.16409, 1.75813, -0.065249, 0.403244, -0.0199195, 124, 176
59.4, -0.14887, -0.690651, -0.16403, 1.75782, -0.065262, 0.403057, -0.019942, 122, 178
59.7, -0.148564, -0.691024, -0.163575, 1.75723, -0.0651707, 0.402669, -0.0199548, 121, 179
60, -0.148271, -0.691192, -0.163179, 1.75694, -0.0650666, 0.402469, -0.019945, 122, 178
60.3, -0.14882, -0.691471, -0.163789, 1.7566, -0.0653131, 0.402307, -0.0200317, 123, 177
60.6, -0.147109, -0.691667, -0.161651, 1.7561, -0.0646364, 0.401859, -0.0198829, 121, 179
60.9, -0.146816, -0.691836, -0.161256, 1.75582, -0.0645325, 0.401659, -0.0198731, 122, 178
61.2, -0.145388, -0.692067, -0.159455, 1.7553, -0.0639738, 0.401223, -0.0197565, 124, 176
61.5, -0.143105, -0.692401, -0.156582, 1.75453, -0.0630775, 0.400565, -0.0195651, 126, 174
61.8, -0.14224, -0.692704, -0.155455, 1.75397, -0.0627537, 0.400154, -0.0195133, 123, 177
62.1, -0.140264, -0.692662, -0.153036, 1.75379, -0.0619493, 0.399882, -0.0193089, 122, 178
62.4, -0.138839, -0.692895, -0.151235, 1.75327, -0.0613925, 0.399447, -0.0191921, 124, 176
62.7, -0.137414, -0.693129, -0.149433, 1.75275, -0.0608362, 0.399014, -0.0190753, 123, 177
63, -0.13711, -0.693505, -0.148981, 1.75216, -0.0607462, 0.398629, -0.0190878, 123, 177
63.3, -0.135407, -0.693706, -0.14684, 1.75165, -0.0600742, 0.398183, -0.0189385, 154, 146
63.6, -0.133985, -0.693941, -0.145038, 1.75113, -0.0595192, 0.39775, -0.0188215, 122, 178
63.9, -0.132563, -0.694177, -0.143235, 1.7506, -0.0589647, 0.397318, -0.0187045, 124, 176
64.2, -0.131422, -0.694448, -0.141771, 1.75006, -0.058527, 0.396898, -0.01862, 122, 178
64.5, -0.130002, -0.694684, -0.139968, 1.74953, -0.0579734, 0.396466, -0.0185029, 122, 178
64.8, -0.12885, -0.695163, -0.138448, 1.74869, -0.05755, 0.395861, -0.0184408, 124, 176
65.1, -0.127432, -0.695401, -0.136644, 1.74816, -0.0569976, 0.39543, -0.0183236, 122, 178
65.4, -0.126015, -0.695639, -0.13484, 1.74764, -0.0564456, 0.394999, -0.0182064, 121, 179
65.7, -0.124598, -0.695877, -0.133036, 1.74711, -0.0558941, 0.394569, -0.0180891, 121, 179
66, -0.122345, -0.696016, -0.130212, 1.74663, -0.0549952, 0.394105, -0.017874, 121, 179
66.3, -0.121487, -0.696325, -0.129087, 1.74607, -0.0546759, 0.393699, -0.0178215, 145, 155
66.6, -0.12035, -0.696599, -0.127622, 1.74552, -0.0542413, 0.393281, -0.0177366, 122, 178
66.9, -0.118937, -0.69684, -0.125817, 1.745, -0.0536916, 0.392853, -0.0176191, 121, 179
67.2, -0.116967, -0.697015, -0.123331, 1.74449, -0.0529112, 0.392401, -0.0174365, 121, 179
67.5, -0.115833, -0.697291, -0.121866, 1.74395, -0.0524778, 0.391985, -0.0173514, 122, 178
67.8, -0.114421, -0.697534, -0.120061, 1.74342, -0.0519294, 0.391558, -0.0172338, 127, 173
68.1, -0.112998, -0.697985, -0.118202, 1.74258, -0.0513955, 0.390947, -0.0171386, 123, 177
68.4, -0.111311, -0.698196, -0.116055, 1.74206, -0.050733, 0.390509, -0.0169883, 122, 178
68.7, -0.110179, -0.698474, -0.11459, 1.74152, -0.0503013, 0.390094, -0.0169031, 122, 178
69, -0.108493, -0.698686, -0.112442, 1.741, -0.0496399, 0.389657, -0.0167527, 122, 178
69.3, -0.107086, -0.698931, -0.110636, 1.74046, -0.049094, 0.389231, -0.0166347, 145, 155
69.6, -0.105956, -0.699211, -0.10917, 1.73991, -0.0486633, 0.388818, -0.0165493, 121, 179
69.9, -0.104273, -0.699424, -0.107021, 1.73939, -0.0480035, 0.388382, -0.0163988, 123, 177
70.2, -0.102856, -0.699881, -0.105164, 1.73855, -0.0474731, 0.387775, -0.0163031, 121, 179
70.5, -0.101452, -0.700128, -0.103356, 1.73802, -0.0469292, 0.387351, -0.016185, 123, 177
70.8, -0.100049, -0.700376, -0.101549, 1.73748, -0.0463857, 0.386928, -0.0160668, 122, 178
71.1, -0.0986458, -0.700625, -0.0997412, 1.73695, -0.0458426, 0.386505, -0.0159485, 123, 177
71.4, -0.0972439, -0.700875, -0.0979333, 1.73641, -0.0453, 0.386083, -0.0158302, 122, 178
71.7, -0.0955665, -0.701092, -0.0957821, 1.73588, -0.0446435, 0.38565, -0.0156792, 122, 178
72, -0.0941545, -0.701553, -0.0939248, 1.73504, -0.0441162, 0.385046, -0.0155832, 122, 178
72.3, -0.0927551, -0.701804, -0.0921162, 1.7345, -0.0435751, 0.384625, -0.0154647, 124, 176
72.6, -0.0913565, -0.702055, -0.0903075, 1.73396, -0.0430345, 0.384205, -0.0153462, 122, 178
72.9, -0.0899587, -0.702308, -0.0884986, 1.73342, -0.0424942, 0.383784, -0.0152276, 123, 177
73.2, -0.088275, -0.702738, -0.0862981, 1.73259, -0.0418552, 0.383172, -0.0150986, 123, 177
73.5, -0.086879, -0.702992, -0.0844886, 1.73205, -0.041316, 0.382753, -0.0149799, 121, 179
73.8, -0.0854837, -0.703246, -0.0826789, 1.73151, -0.0407772, 0.382334, -0.0148611, 122, 178
74.1, -0.0838031, -0.703679, -0.0804782, 1.73068, -0.04014, 0.381724, -0.0147319, 121, 179
74.4, -0.082135, -0.703903, -0.0783229, 1.73015, -0.0394888, 0.381295, -0.0145803, 121, 179
74.7, -0.0810164, -0.704191, -0.0768568, 1.7296, -0.039065, 0.380889, -0.014494, 125, 175
75, -0.0796131, -0.704659, -0.0750002, 1.72875, -0.038543, 0.380291, -0.0143974, 122, 178
75.3, -0.077948, -0.704885, -0.0728435, 1.72822, -0.0378935, 0.379864, -0.0142455, 175, 125
75.6, -0.0765579, -0.705142, -0.0710323, 1.72767, -0.0373577, 0.379448, -0.0141264, 175, 125
75.9, -0.0751572, -0.705612, -0.0691759, 1.72683, -0.0368373, 0.378852, -0.0140295, 122, 178
76.2, -0.0734952, -0.70584, -0.0670179, 1.72629, -0.0361895, 0.378426, -0.0138774, 122, 178
76.5, -0.0721076, -0.7061, -0.0652059, 1.72575, -0.0356551, 0.378011, -0.0137581, 121, 179
76.8, -0.0704365, -0.70654, -0.0630042, 1.72491, -0.0350235, 0.377407, -0.0136282, 120, 180
77.1, -0.0690508, -0.706801, -0.0611916, 1.72437, -0.0344902, 0.376993, -0.0135087, 122, 178
77.4, -0.0673927, -0.707032, -0.059032, 1.72383, -0.0338446, 0.37657, -0.0133563, 123, 177
77.7, -0.066281, -0.707326, -0.0575652, 1.72327, -0.0334247, 0.376168, -0.0132696, 120, 180
78, -0.0646138, -0.70777, -0.0553632, 1.72244, -0.0327954, 0.375566, -0.0131393, 121, 179
78.3, -0.0629589, -0.708003, -0.0532023, 1.7219, -0.0321515, 0.375144, -0.0129868, 120, 180
78.6, -0.0618492, -0.708298, -0.0517353, 1.72134, -0.0317329, 0.374743, -0.0128998, 121, 179
78.9, -0.0601851, -0.708744, -0.049533, 1.7205, -0.0311053, 0.374143, -0.0127693, 121, 179
79.2, -0.0588053, -0.70901, -0.0477187, 1.71995, -0.0305753, 0.373733, -0.0126494, 120, 180
79.5, -0.0571543, -0.709246, -0.0455561, 1.71941, -0.0299335, 0.373313, -0.0124965, 121, 179
79.8, -0.0557647, -0.709725, -0.0437012, 1.71856, -0.0294199, 0.372725, -0.0123987, 123, 177
80.1, -0.0543875, -0.709993, -0.0418861, 1.71801, -0.0288913, 0.372316, -0.0122785, 121, 179
80.4, -0.0527287, -0.710443, -0.0396832, 1.71717, -0.0282668, 0.37172, -0.0121476, 120, 180
80.7, -0.0513533, -0.710712, -0.0378675, 1.71662, -0.0277392, 0.371312, -0.0120273, 121, 179
81, -0.0491657, -0.710893, -0.0350053, 1.71609, -0.0268764, 0.370876, -0.0118078, 121, 179
81.3, -0.0480514, -0.711406, -0.0335003, 1.71523, -0.026477, 0.370301, -0.0117425, 121, 179
81.6, -0.0469488, -0.711707, -0.0320325, 1.71467, -0.0260624, 0.369905, -0.0116549, 122, 178
81.9, -0.0455656, -0.712191, -0.0301778, 1.71383, -0.0255525, 0.369321, -0.0115566, 121, 179
82.2, -0.0439243, -0.712434, -0.0280108, 1.71328, -0.0249158, 0.368906, -0.011403, 121, 179
82.5, -0.0420031, -0.712861, -0.0254576, 1.71244, -0.0241841, 0.368305, -0.0112384, 121, 179
82.8, -0.0409035, -0.713165, -0.0239893, 1.71188, -0.0237712, 0.367911, -0.0111506, 121, 179
83.1, -0.0392653, -0.71341, -0.021821, 1.71133, -0.0231361, 0.367498, -0.0109967, 121, 179
83.4, -0.0376171, -0.71387, -0.0196172, 1.71049, -0.0225176, 0.366908, -0.0108649, 123, 177
83.7, -0.0362505, -0.714145, -0.0177988, 1.70993, -0.0219948, 0.366506, -0.0107439, 121, 179
84, -0.0348734, -0.714635, -0.0159449, 1.70908, -0.0214885, 0.365927, -0.010645, 121, 179
84.3, -0.0335087, -0.714912, -0.0141258, 1.70853, -0.0209666, 0.365525, -0.0105238, 122, 178
84.6, -0.031865, -0.715375, -0.0119212, 1.70768, -0.0203505, 0.364939, -0.0103917, 122, 178
84.9, -0.0305021, -0.715653, -0.0101015, 1.70713, -0.0198296, 0.364538, -0.0102704, 121, 179
85.2, -0.0288605, -0.716118, -0.00789654, 1.70628, -0.0192148, 0.363953, -0.010138, 151, 149
85.5, -0.0274995, -0.716398, -0.00607623, 1.70572, -0.0186948, 0.363554, -0.0100165, 122, 178
85.8, -0.0261279, -0.716892, -0.00422248, 1.70487, -0.0181916, 0.362978, -0.00991718, 121, 179
86.1, -0.0245008, -0.717146, -0.00204897, 1.70432, -0.0175622, 0.362571, -0.00976242, 123, 177
86.4, -0.0231311, -0.717642, -0.00019536, 1.70347, -0.01706, 0.361997, -0.0096629, 120, 180
86.7, -0.0215061, -0.717897, 0.00197918, 1.70291, -0.0164317, 0.361591, -0.00950794, 123, 177
87, -0.0201382, -0.718395, 0.00383266, 1.70206, -0.0159306, 0.361019, -0.00940826, 126, 174
87.3, -0.0185155, -0.718652, 0.00600822, 1.7015, -0.0153033, 0.360614, -0.00925313, 122, 178
87.6, -0.0171606, -0.718937, 0.00783053, 1.70094, -0.0147866, 0.360219, -0.0091311, 122, 178
87.9, -0.0155288, -0.719409, 0.0100366, 1.7001, -0.014177, 0.35964, -0.00899794, 131, 169
88.2, -0.0141758, -0.719696, 0.0118595, 1.69954, -0.0136612, 0.359245, -0.00887575, 121, 179
88.5, -0.0125461, -0.72017, 0.0140658, 1.69869, -0.0130528, 0.358668, -0.0087424, 122, 178
88.8, -0.011195, -0.720458, 0.0158894, 1.69813, -0.0125379, 0.358275, -0.00862005, 125, 175
89.1, -0.00956748, -0.720934, 0.018096, 1.69728, -0.0119307, 0.357699, -0.00848651, 121, 179
89.4, -0.00821816, -0.721224, 0.0199201, 1.69672, -0.0114167, 0.357307, -0.008364, 125, 175
89.7, -0.00659288, -0.721702, 0.022127, 1.69587, -0.0108107, 0.356732, -0.00823026, 123, 177
90, -0.0052454, -0.721993, 0.0239517, 1.69531, -0.0102977, 0.356341, -0.00810758, 122, 178
90.3, -0.00362231, -0.722473, 0.0261589, 1.69446, -0.00969276, 0.355768, -0.00797365, 121, 179
90.6, -0.00362231, -0.722473, 0.0261589, 1.69446, -0.00969276, 0.355768, -0.00797365, 121, 179
90.9, -0.00362231, -0.722473, 0.0261589, 1.69446, -0.00969276, 0.355768, -0.00797365, 121, 179
91.2, -0.00362231, -0.722473, 0.0261589, 1.69446, -0.00969276, 0.355768, -0.00797365, 120, 180
91.5, -0.00362231, -0.722473, 0.0261589, 1.69446, -0.00969276, 0.355768, -0.00797365, 120, 180
91.8, -0.00362231, -0.722473, 0.0261589, 1.69446, -0.00969276, 0.355768, -0.00797365, 125, 175
92.1, -0.00362231, -0.722473, 0.0261589, 1.69446, -0.00969276, 0.355768, -0.00797365, 120, 180
92.4, -0.00362231, -0.722473, 0.0261589, 1.69446, -0.00969276, 0.355768, -0.00797365, 120, 180
92.7, -0.00362231, -0.722473, 0.0261589, 1.69446, -0.00969276, 0.355768, -0.00797365, 120, 180
93, -0.00362231, -0.722473, 0.0261589, 1.69446, -0.00969276, 0.355768, -0.00797365, 121, 179
93.3, -0.00362231, -0.722473, 0.0261589, 1.69446, -0.00969276, 0.355768, -0.00797365, 120, 180
93.6, -0.00362231, -0.722473, 0.0261589, 1.69446, -0.00969276, 0.355768, -0.00797365, 163, 137
93.9, -0.00362231, -0.722473, 0.0261589, 1.69446, -0.00969276, 0.355768, -0.00797365, 122, 178
94.2, -0.00362231, -0.722473, 0.0261589, 1.69446, -0.00969276, 0.355768, -0.00797365, 121, 179
94.5, -0.00362231, -0.722473, 0.0261589, 1.69446, -0.00969276, 0.355768, -0.00797365, 121, 179
94.8, -0.00362231, -0.722473, 0.0261589, 1.69446, -0.00969276, 0.355768, -0.00797365, 120, 180
95.1, -0.00362231, -0.722473, 0.0261589, 1.69446, -0.00969276, 0.355768, -0.00797365, 121, 179
95.4, -0.00362231, -0.722473, 0.0261589, 1.69446, -0.00969276, 0.355768, -0.00797365, 120, 180
95.7, -0.00362231, -0.722473, 0.0261589, 1.69446, -0.00969276, 0.355768, -0.00797365, 121, 179
96, -0.00362231, -0.722473, 0.0261589, 1.69446, -0.00969276, 0.355768, -0.00797365, 123, 177
96.3, -0.00362231, -0.722473, 0.0261589, 1.69446, -0.00969276, 0.355768, -0.00797365, 122, 178
96.6, -0.00362231, -0.722473, 0.0261589, 1.69446, -0.00969276, 0.355768, -0.00797365, 121, 179
96.9, -0.00362231, -0.722473, 0.0261589, 1.69446, -0.00969276, 0.355768, -0.00797365, 121, 179
97.2, -0.00362231, -0.722473, 0.0261589, 1.69446, -0.00969276, 0.355768, -0.00797365, 121, 179
97.5, -0.00362231, -0.722473, 0.0261589, 1.69446, -0.00969276, 0.355768, -0.00797365, 120, 180
97.8, -0.00362231, -0.722473, 0.0261589, 1.69446, -0.00969276, 0.355768, -0.00797365, 168, 132
98.1, -0.00362231, -0.722473, 0.0261589, 1.69446, -0.00969276, 0.355768, -0.00797365, 164, 136
98.4, -0.00362231, -0.722473, 0.0261589, 1.69446, -0.00969276, 0.355768, -0.00797365, 122, 178
98.7, -0.00362231, -0.722473, 0.0261589, 1.69446, -0.00969276, 0.355768, -0.00797365, 121, 179
99, -0.00362231, -0.722473, 0.0261589, 1.69446, -0.00969276, 0.355768, -0.00797365, 121, 179
99.3, -0.00362231, -0.722473, 0.0261589, 1.69446, -0.00969276, 0.355768, -0.00797365, 122, 178
99.6, -0.00362231, -0.722473, 0.0261589, 1.69446, -0.00969276, 0.355768, -0.00797365, 172, 128
99.9, -0.00362231, -0.722473, 0.0261589, 1.69446, -0.00969276, 0.355768, -0.00797365, 176, 124
100.2, -0.00362231, -0.722473, 0.0261589, 1.69446, -0.00969276, 0.355768, -0.00797365, 120, 180
100.5, -0.00362231, -0.722473, 0.0261589, 1.69446, -0.00969276, 0.355768, -0.00797365, 121, 179
100.8, -0.00362231, -0.722473, 0.0261589, 1.69446, -0.00969276, 0.355768, -0.00797365, 121, 179
101.1, -0.00362231, -0.722473, 0.0261589, 1.69446, -0.00969276, 0.355768, -0.00797365, 119, 181
101.4, -0.00362231, -0.722473, 0.0261589, 1.69446, -0.00969276, 0.355768, -0.00797365, 121, 179
101.7, -0.00362231, -0.722473, 0.0261589, 1.69446, -0.00969276, 0.355768, -0.00797365, 121, 179
102, -0.00362231, -0.722473, 0.0261589, 1.69446, -0.00969276, 0.355768, -0.00797365, 121, 179
102.3, -0.00362231, -0.722473, 0.0261589, 1.69446, -0.00969276, 0.355768, -0.00797365, 120, 180
102.6, -0.00362231, -0.722473, 0.0261589, 1.69446, -0.00969276, 0.355768, -0.00797365, 120, 180
102.9, -0.00362231, -0.722473, 0.0261589, 1.69446, -0.00969276, 0.355768, -0.00797365, 121, 179
103.2, -0.00362231, -0.722473, 0.0261589, 1.69446, -0.00969276, 0.355768, -0.00797365, 172, 128
103.5, -0.00362231, -0.722473, 0.0261589, 1.69446, -0.00969276, 0.355768, -0.00797365, 122, 178
103.8, -0.00362231, -0.722473, 0.0261589, 1.69446, -0.00969276, 0.355768, -0.00797365, 121, 179
104.1, -0.00362231, -0.722473, 0.0261589, 1.69446, -0.00969276, 0.355768, -0.00797365, 121, 179
104.4, -0.00362231, -0.722473, 0.0261589, 1.69446, -0.00969276, 0.355768, -0.00797365, 120, 180
104.7, -0.00362231, -0.722473, 0.0261589, 1.69446, -0.00969276, 0.355768, -0.00797365, 120, 180
105, -0.00362231, -0.722473, 0.0261589, 1.69446, -0.00969276, 0.355768, -0.00797365, 120, 180
105.3, -0.00362231, -0.722473, 0.0261589, 1.69446, -0.00969276, 0.355768, -0.00797365, 120, 180
105.6, -0.00362231, -0.722473, 0.0261589, 1.69446, -0.00969276, 0.355768, -0.00797365, 121, 179
105.9, -0.00362231, -0.722473, 0.0261589, 1.69446, -0.00969276, 0.355768, -0.00797365, 121, 179
106.2, -0.00362231, -0.722473, 0.0261589, 1.69446, -0.00969276, 0.355768, -0.00797365, 267, 33
106.5, -0.00362231, -0.722473, 0.0261589, 1.69446, -0.00969276, 0.355768, -0.00797365, 301, 0
106.8, -0.00362231, -0.722473, 0.0261589, 1.69446, -0.00969276, 0.355768, -0.00797365, 123, 177
107.1, -0.00362231, -0.722473, 0.0261589, 1.69446, -0.00969276, 0.355768, -0.00797365, 121, 179
107.4, -0.00362231, -0.722473, 0.0261589, 1.69446, -0.00969276, 0.355768, -0.00797365, 150, 150
107.7, -0.00362231, -0.722473, 0.0261589, 1.69446, -0.00969276, 0.355768, -0.00797365, 121, 179
108, -0.00362231, -0.722473, 0.0261589, 1.69446, -0.00969276, 0.355768, -0.00797365, 122, 178
108.3, -0.00362231, -0.722473, 0.0261589, 1.69446, -0.00969276, 0.355768, -0.00797365, 167, 133
108.6, -0.00362231, -0.722473, 0.0261589, 1.69446, -0.00969276, 0.355768, -0.00797365, 122, 178
108.9, -0.00362231, -0.722473, 0.0261589, 1.69446, -0.00969276, 0.355768, -0.00797365, 120, 180
109.2, -0.00362231, -0.722473, 0.0261589, 1.69446, -0.00969276, 0.355768, -0.00797365, 122, 178
109.5, -0.00362231, -0.722473, 0.0261589, 1.69446, -0.00969276, 0.355768, -0.00797365, 148, 152
109.8, -0.00362231, -0.722473, 0.0261589, 1.69446, -0.00969276, 0.355768, -0.00797365, 121, 179
110.1, -0.00362231, -0.722473, 0.0261589, 1.69446, -0.00969276, 0.355768, -0.00797365, 120, 180
110.4, -0.00362231, -0.722473, 0.0261589, 1.69446, -0.00969276, 0.355768, -0.00797365, 121, 179
110.7, -0.00362231, -0.722473, 0.0261589, 1.69446, -0.00969276, 0.355768, -0.00797365, 120, 180
111, -0.00362231, -0.722473, 0.0261589, 1.69446, -0.00969276, 0.355768, -0.00797365, 120, 180
111.3, -0.00362231, -0.722473, 0.0261589, 1.69446, -0.00969276, 0.355768, -0.00797365, 120, 180
111.6, -0.00362231, -0.722473, 0.0261589, 1.69446, -0.00969276, 0.355768, -0.00797365, 119, 181
111.9, -0.00362231, -0.722473, 0.0261589, 1.69446, -0.00969276, 0.355768, -0.00797365, 122, 178
112.2, -0.00362231, -0.722473, 0.0261589, 1.69446, -0.00969276, 0.355768, -0.00797365, 120, 180
112.5, -0.00362231, -0.722473, 0.0261589, 1.69446, -0.00969276, 0.355768, -0.00797365, 123, 177
112.8, -0.00362231, -0.722473, 0.0261589, 1.69446, -0.00969276, 0.355768, -0.00797365, 122, 178
113.1, -0.00362231, -0.722473, 0.0261589, 1.69446, -0.00969276, 0.355768, -0.00797365, 186, 114
113.4, -0.00362231, -0.722473, 0.0261589, 1.69446, -0.00969276, 0.355768, -0.00797365, 158, 142
113.7, -0.00362231, -0.722473, 0.0261589, 1.69446, -0.00969276, 0.355768, -0.00797365, 121, 179
114, -0.00362231, -0.722473, 0.0261589, 1.69446, -0.00969276, 0.355768, -0.00797365, 121, 179
114.3, -0.00362231, -0.722473, 0.0261589, 1.69446, -0.00969276, 0.355768, -0.00797365, 121, 179
114.6, -0.00362231, -0.722473, 0.0261589, 1.69446, -0.00969276, 0.355768, -0.00797365, 120, 180
114.9, -0.00362231, -0.722473, 0.0261589, 1.69446, -0.00969276, 0.355768, -0.00797365, 120, 180
115.2, -0.00362231, -0.722473, 0.0261589, 1.69446, -0.00969276, 0.355768, -0.00797365, 122, 178
115.5, -0.00362231, -0.722473, 0.0261589, 1.69446, -0.00969276, 0.355768, -0.00797365, 121, 179
115.8, -0.00362231, -0.722473, 0.0261589, 1.69446, -0.00969276, 0.355768, -0.00797365, 153, 147
116.1, -0.00362231, -0.722473, 0.0261589, 1.69446, -0.00969276, 0.355768, -0.00797365, 121, 179
116.4, -0.00362231, -0.722473, 0.0261589, 1.69446, -0.00969276, 0.355768, -0.00797365, 122, 178
116.7, -0.00362231, -0.722473, 0.0261589, 1.69446, -0.00969276, 0.355768, -0.00797365, 120, 180
117, -0.00362231, -0.722473, 0.0261589, 1.69446, -0.00969276, 0.355768, -0.00797365, 164, 136
117.3, -0.00362231, -0.722473, 0.0261589, 1.69446, -0.00969276, 0.355768, -0.00797365, 141, 159
117.6, -0.00362231, -0.722473, 0.0261589, 1.69446, -0.00969276, 0.355768, -0.00797365, 121, 179
117.9, -0.00362231, -0.722473, 0.0261589, 1.69446, -0.00969276, 0.355768, -0.00797365, 121, 179
118.2, -0.00362231, -0.722473, 0.0261589, 1.69446, -0.00969276, 0.355768, -0.00797365, 120, 180
118.5, -0.00362231, -0.722473, 0.0261589, 1.69446, -0.00969276, 0.355768, -0.00797365, 122, 178
118.8, -0.00362231, -0.722473, 0.0261589, 1.69446, -0.00969276, 0.355768, -0.00797365, 121, 179
119.1, -0.00362231, -0.722473, 0.0261589, 1.69446, -0.00969276, 0.355768, -0.00797365, 125, 175
119.4, -0.00362231, -0.722473, 0.0261589, 1.69446, -0.00969276, 0.355768, -0.00797365, 121, 179
119.7, -0.00362231, -0.722473, 0.0261589, 1.69446, -0.00969276, 0.355768, -0.00797365, 123, 177
120, -0.00362231, -0.722473, 0.0261589, 1.69446, -0.00969276, 0.355768, -0.00797365, 148, 152
120.3, -0.00362231, -0.722473, 0.0261589, 1.69446, -0.00969276, 0.355768, -0.00797365, 155, 145
120.6, -0.00493201, -0.72283, 0.0244178, 1.69415, -0.0102543, 0.355637, -0.00816117, 121, 179
120.9, -0.00650493, -0.723218, 0.0223238, 1.69384, -0.0109242, 0.355516, -0.00838152, 121, 179
121.2, -0.00781366, -0.723576, 0.0205829, 1.69353, -0.0114851, 0.355386, -0.00856883, 121, 179
121.5, -0.00885815, -0.723906, 0.0191955, 1.69322, -0.011937, 0.355247, -0.00872293, 120, 180
121.8, -0.0104293, -0.724295, 0.0171015, 1.69291, -0.012606, 0.355127, -0.00894293, 122, 178
122.1, -0.0114731, -0.724626, 0.0157143, 1.69261, -0.0130574, 0.354989, -0.00909687, 121, 179
122.4, -0.0130431, -0.725017, 0.0136203, 1.69229, -0.0137257, 0.35487, -0.00931665, 153, 147
122.7, -0.0143377, -0.725592, 0.0119096, 1.69169, -0.0143012, 0.354567, -0.00952473, 120, 180
123, -0.0156546, -0.72574, 0.0101389, 1.69167, -0.0148443, 0.354614, -0.00968998, 155, 145
123.3, -0.0166968, -0.726072, 0.00875226, 1.69137, -0.0152948, 0.354477, -0.00984359, 123, 177
123.6, -0.0185271, -0.726497, 0.00630494, 1.69105, -0.0160701, 0.35437, -0.0100956, 120, 180
123.9, -0.0193056, -0.7268, 0.00527268, 1.69074, -0.0164118, 0.354223, -0.0102162, 126, 174
124.2, -0.0211346, -0.727227, 0.00282526, 1.69042, -0.0171863, 0.354117, -0.010468, 120, 180
124.5, -0.0221753, -0.727561, 0.00143926, 1.69012, -0.0176359, 0.353981, -0.0106212, 123, 177
124.8, -0.0232269, -0.727682, 2.11354e-05, 1.6901, -0.0180696, 0.35402, -0.0107532, 128, 172
125.1, -0.0245298, -0.728048, -0.00171856, 1.68978, -0.0186273, 0.353894, -0.0109392, 121, 179
125.4, -0.0255696, -0.728383, -0.00310402, 1.68947, -0.0190763, 0.353759, -0.0110923, 120, 180
125.7, -0.0273958, -0.728814, -0.00555122, 1.68915, -0.0198493, 0.353655, -0.0113434, 121, 179
126, -0.0286972, -0.729182, -0.00729059, 1.68883, -0.0204061, 0.35353, -0.0115292, 123, 177
126.3, -0.0299981, -0.72955, -0.00902988, 1.68852, -0.0209626, 0.353406, -0.0117148, 119, 181
126.6, -0.0312986, -0.72992, -0.0107691, 1.6882, -0.0215189, 0.353282, -0.0119004, 121, 179
126.9, -0.0320744, -0.730226, -0.0117992, 1.6879, -0.0218589, 0.353138, -0.0120203, 123, 177
127.2, -0.0333739, -0.730596, -0.0135385, 1.68758, -0.0224146, 0.353015, -0.0122057, 120, 180
127.5, -0.034411, -0.730935, -0.014923, 1.68727, -0.0228621, 0.352881, -0.0123582, 121, 179
127.8, -0.0362324, -0.731371, -0.0173706, 1.68694, -0.0236326, 0.352781, -0.0126084, 121, 179
128.1, -0.037519, -0.731956, -0.0190729, 1.68634, -0.0242023, 0.352484, -0.0128145, 121, 179
128.4, -0.0388272, -0.732115, -0.0208487, 1.68631, -0.0247419, 0.352537, -0.0129783, 134, 166
128.7, -0.0401242, -0.732489, -0.0225874, 1.68599, -0.0252962, 0.352416, -0.0131631, 121, 179
129, -0.0406476, -0.732552, -0.0232985, 1.68598, -0.0255122, 0.352437, -0.0132287, 121, 179
129.3, -0.0422052, -0.732959, -0.0253914, 1.68565, -0.0261737, 0.352327, -0.0134459, 121, 179
129.6, -0.0437622, -0.733367, -0.0274843, 1.68533, -0.026835, 0.352218, -0.0136629, 120, 180
129.9, -0.0450576, -0.733742, -0.0292223, 1.68501, -0.0273885, 0.352098, -0.0138474, 122, 178
130.2, -0.0453082, -0.733987, -0.0295393, 1.68471, -0.0275112, 0.351934, -0.0139015, 122, 178
130.5, -0.0466028, -0.734364, -0.0312775, 1.68439, -0.0280642, 0.351814, -0.0140859, 120, 180
130.8, -0.0481574, -0.734774, -0.0333705, 1.68406, -0.0287243, 0.351707, -0.0143025, 151, 149
131.1, -0.0492013, -0.734905, -0.0347931, 1.68404, -0.0291549, 0.351751, -0.0144331, 122, 178
131.4, -0.050234, -0.735249, -0.0361755, 1.68372, -0.0295998, 0.351621, -0.0145846, 120, 180
131.7, -0.0517763, -0.735874, -0.0382275, 1.6831, -0.0302734, 0.35134, -0.0148219, 120, 180
132, -0.0530684, -0.736254, -0.0399653, 1.68278, -0.0308251, 0.351222, -0.0150058, 122, 178
132.3, -0.0541107, -0.736387, -0.0413889, 1.68275, -0.031255, 0.351267, -0.0151362, 120, 180
132.6, -0.0551419, -0.736733, -0.0427707, 1.68244, -0.031699, 0.351138, -0.0152873, 120, 180
132.9, -0.0561836, -0.736866, -0.0441945, 1.68241, -0.0321288, 0.351184, -0.0154176, 121, 179
133.2, -0.0561836, -0.736866, -0.0441945, 1.68241, -0.0321288, 0.351184, -0.0154176, 439, 0
133.5, -0.0579943, -0.737316, -0.0466414, 1.68207, -0.0328937, 0.351092, -0.0156655, 141, 159
133.8, -0.0592848, -0.737698, -0.048378, 1.68175, -0.0334444, 0.350976, -0.0158489, 126, 174
134.1, -0.0608344, -0.738116, -0.0504697, 1.68141, -0.0341018, 0.350872, -0.0160644, 119, 181
134.4, -0.0621238, -0.738499, -0.052206, 1.68109, -0.0346519, 0.350756, -0.0162476, 122, 178
134.7, -0.0631422, -0.73906, -0.0535423, 1.68048, -0.0351084, 0.350454, -0.0164192, 120, 180
135, -0.0641814, -0.739197, -0.0549674, 1.68045, -0.0355372, 0.350502, -0.016549, 121, 179
135.3, -0.0649503, -0.739512, -0.0559918, 1.68014, -0.0358726, 0.350363, -0.0166673, 122, 178
135.6, -0.0659891, -0.73965, -0.0574171, 1.68011, -0.0363011, 0.350411, -0.016797, 123, 177
135.9, -0.0672765, -0.740035, -0.0591529, 1.67978, -0.0368502, 0.350297, -0.0169798, 152, 148
136.2, -0.0685634, -0.740422, -0.0608886, 1.67945, -0.037399, 0.350183, -0.0171624, 121, 179
136.5, -0.0698498, -0.740808, -0.0626242, 1.67913, -0.0379475, 0.35007, -0.017345, 120, 180
136.8, -0.0706281, -0.740912, -0.0636941, 1.6791, -0.0382686, 0.350107, -0.0174421, 122, 178
137.1, -0.071914, -0.7413, -0.0654292, 1.67877, -0.0388167, 0.349994, -0.0176245, 128, 172
137.4, -0.0726918, -0.741405, -0.0664992, 1.67875, -0.0391377, 0.350031, -0.0177215, 122, 178
137.7, -0.0739772, -0.741793, -0.0682339, 1.67842, -0.0396855, 0.349919, -0.0179038, 120, 180
138, -0.075262, -0.742182, -0.0699686, 1.67809, -0.0402331, 0.349807, -0.0180859, 121, 179
138.3, -0.0760288, -0.7425, -0.0709907, 1.67778, -0.040567, 0.349669, -0.0182036, 122, 178
138.6, -0.0778187, -0.743175, -0.0733884, 1.67714, -0.0413399, 0.349409, -0.0184701, 122, 178
138.9, -0.0780878, -0.742999, -0.0737943, 1.67742, -0.0414335, 0.349597, -0.0184815, 166, 134
139.2, -0.0793711, -0.74339, -0.0755285, 1.67709, -0.0419802, 0.349486, -0.0186633, 121, 179
139.5, -0.0809121, -0.743818, -0.0776185, 1.67675, -0.042633, 0.349389, -0.0188769, 121, 179
139.8, -0.0814397, -0.743677, -0.0783823, 1.67703, -0.0428335, 0.34959, -0.0189206, 121, 179
140.1, -0.0822055, -0.743997, -0.0794029, 1.67671, -0.0431667, 0.349454, -0.0190381, 121, 179
140.4, -0.0839932, -0.744675, -0.0817977, 1.67607, -0.043938, 0.349196, -0.0193038, 121, 179
140.7, -0.0850163, -0.745032, -0.0831747, 1.67575, -0.0443771, 0.349073, -0.0194531, 121, 179
141, -0.0857912, -0.74514, -0.084246, 1.67572, -0.0446969, 0.349113, -0.0195495, 121, 179
141.3, -0.0865559, -0.745461, -0.085266, 1.67541, -0.0450295, 0.348977, -0.0196667, 121, 179
141.6, -0.0875885, -0.745607, -0.086694, 1.67537, -0.0454556, 0.34903, -0.0197953, 172, 128
141.9, -0.0886107, -0.745965, -0.0880702, 1.67505, -0.0458942, 0.348908, -0.0199443, 122, 178
142.2, -0.0898904, -0.746361, -0.0898028, 1.67471, -0.0464389, 0.3488, -0.0201252, 119, 181
142.5, -0.090922, -0.746508, -0.0912312, 1.67468, -0.0468647, 0.348854, -0.0202536, 125, 175
142.8, -0.0917057, -0.746407, -0.0923553, 1.67494, -0.0471716, 0.34907, -0.0203292, 121, 179
143.1, -0.0932325, -0.747054, -0.0943898, 1.67431, -0.0478344, 0.348801, -0.0205623, 122, 178
143.4, -0.0942535, -0.747413, -0.0957647, 1.67398, -0.0482722, 0.34868, -0.0207109, 120, 180
143.7, -0.094769, -0.747487, -0.0964795, 1.67396, -0.0484851, 0.348708, -0.0207751, 121, 179
144, -0.0965611, -0.747962, -0.0989232, 1.67361, -0.0492405, 0.34863, -0.0210188, 121, 179
144.3, -0.0973338, -0.748074, -0.0999952, 1.67358, -0.0495595, 0.348671, -0.0211148, 141, 159
144.6, -0.0978393, -0.74836, -0.100655, 1.67327, -0.0497845, 0.348523, -0.0211996, 119, 181
144.9, -0.0991261, -0.748549, -0.102441, 1.67322, -0.0503155, 0.348593, -0.0213593, 122, 178
145.2, -0.100146, -0.74891, -0.103814, 1.6729, -0.0507525, 0.348473, -0.0215075, 121, 179
145.5, -0.101432, -0.7491, -0.1056, 1.67285, -0.0512832, 0.348544, -0.021667, 120, 180
145.8, -0.101937, -0.749387, -0.106259, 1.67254, -0.0515079, 0.348396, -0.0217516, 157, 143
146.1, -0.102966, -0.749539, -0.107688, 1.6725, -0.0519326, 0.348453, -0.0218793, 123, 177
146.4, -0.104241, -0.749941, -0.109418, 1.67216, -0.052475, 0.348348, -0.0220591, 122, 178
146.7, -0.105013, -0.750055, -0.11049, 1.67213, -0.0527934, 0.348391, -0.0221548, 122, 178
147, -0.106288, -0.750458, -0.112219, 1.67179, -0.0533354, 0.348287, -0.0223345, 187, 113
147.3, -0.106802, -0.750534, -0.112934, 1.67177, -0.0535477, 0.348315, -0.0223983, 121, 179
147.6, -0.107582, -0.750439, -0.114064, 1.67203, -0.0538542, 0.348535, -0.0224734, 122, 178
147.9, -0.109104, -0.751093, -0.11609, 1.67139, -0.0545133, 0.34827, -0.0227048, 121, 179
148.2, -0.110368, -0.751708, -0.11776, 1.67076, -0.0550661, 0.347992, -0.0229044, 121, 179
148.5, -0.111404, -0.751653, -0.119248, 1.67101, -0.0554782, 0.348226, -0.0230111, 122, 178
148.8, -0.111917, -0.751731, -0.119964, 1.67099, -0.0556903, 0.348256, -0.0230748, 120, 180
149.1, -0.112944, -0.751887, -0.121393, 1.67095, -0.0561141, 0.348314, -0.0232019, 121, 179
149.4, -0.113961, -0.752253, -0.122763, 1.67062, -0.0565492, 0.348197, -0.0233492, 121, 179
149.7, -0.114721, -0.75258, -0.123776, 1.6703, -0.0568785, 0.348065, -0.023465, 120, 180
150, -0.115747, -0.752738, -0.125205, 1.67026, -0.057302, 0.348125, -0.0235919, 119, 181
150.3, -0.116516, -0.752855, -0.126278, 1.67022, -0.0576196, 0.34817, -0.0236871, 175, 125
