BatekPetr/FinalProject/results/TrajectorySims/MediumSequence/MediumSequence_joints_M_Targ_Pts.csv
time[s], Q0, Q1, Q2, Q3, Q4, Q5, Q6, Time for Inverse kinematics[s], Time for move[ms]
0, 0, -0.65, 0, 1.8, 0, 0.42, 0, 0, 0
1, 0, -0.65, 0, 1.8, 0, 0.42, 0, 1655, 0
2, 0.0067441, -0.65256, 0.00763828, 1.80101, 0.00330832, 0.421611, 0.00135773, 791, 209
3, 0.00152734, -0.652958, 0.00235109, 1.80119, 0.000193786, 0.421927, -0.00021851, 106, 894
4, -0.00338301, -0.650291, -0.00342077, 1.80015, -0.00219813, 0.420218, -0.00123597, 143, 857
5, -0.00856759, -0.647434, -0.00954189, 1.79901, -0.00470941, 0.418386, -0.00230175, 109, 891
6, -0.0134534, -0.64473, -0.0153262, 1.79791, -0.00706619, 0.416651, -0.00330035, 105, 895
7, -0.018465, -0.640441, -0.0215156, 1.79631, -0.0094469, 0.414008, -0.00434024, 106, 894
8, -0.0229807, -0.637851, -0.0277806, 1.79496, -0.0103179, 0.412082, -0.00386086, 188, 812
9, -0.0279577, -0.633528, -0.0339877, 1.79332, -0.0126474, 0.409428, -0.00486864, 146, 854
10, -0.0329514, -0.629334, -0.039404, 1.79158, -0.0161884, 0.406814, -0.00718962, 112, 888
11, -0.0375546, -0.625192, -0.0460841, 1.78968, -0.0170131, 0.403998, -0.00670064, 144, 856
12, -0.0425133, -0.620968, -0.0515213, 1.78788, -0.020501, 0.401371, -0.00898938, 143, 857
13, -0.0467278, -0.613821, -0.0587644, 1.7847, -0.0204667, 0.396597, -0.00779206, 136, 864
14, -0.0519891, -0.609724, -0.0637573, 1.78314, -0.0252595, 0.394325, -0.0114085, 136, 864
15, -0.0563388, -0.604164, -0.0705246, 1.78032, -0.0258425, 0.390422, -0.0108181, 114, 886
16, -0.0608284, -0.597114, -0.0773327, 1.77732, -0.0270588, 0.385987, -0.0109063, 144, 856
17, -0.0653372, -0.590331, -0.0833405, 1.77429, -0.0295098, 0.381701, -0.0123244, 118, 882
18, -0.0695994, -0.581962, -0.0902323, 1.77043, -0.0305289, 0.376263, -0.0123254, 141, 859
19, -0.0742813, -0.576976, -0.0957498, 1.76825, -0.0335859, 0.373289, -0.0143311, 110, 890
20, -0.078722, -0.570414, -0.102145, 1.76524, -0.0352203, 0.369162, -0.0149236, 187, 813
21, -0.0827675, -0.560902, -0.109133, 1.7609, -0.0359747, 0.363141, -0.0147537, 142, 858
22, -0.0873515, -0.556179, -0.115381, 1.75848, -0.0375584, 0.360061, -0.0152552, 153, 847
23, -0.0911734, -0.545503, -0.122449, 1.75331, -0.0380934, 0.35316, -0.0149574, 118, 882
24, -0.0955735, -0.539763, -0.128755, 1.75054, -0.0394654, 0.349574, -0.0153335, 167, 833
25, -0.0997082, -0.529484, -0.135379, 1.74571, -0.0412955, 0.343231, -0.0163471, 108, 892
26, -0.103826, -0.519198, -0.142014, 1.7408, -0.0430536, 0.336901, -0.0173088, 272, 728
27, -0.107505, -0.511153, -0.149223, 1.73659, -0.0419288, 0.331562, -0.0153244, 113, 887
28, -0.111868, -0.503579, -0.154868, 1.73294, -0.0449933, 0.327101, -0.0175984, 114, 886
29, -0.115756, -0.492377, -0.161935, 1.72729, -0.0457597, 0.320073, -0.0176358, 190, 810
30, -0.119379, -0.48197, -0.169278, 1.72206, -0.0449721, 0.313554, -0.0161121, 114, 886
31, -0.123112, -0.469906, -0.176394, 1.71603, -0.0454488, 0.306198, -0.0159358, 150, 850
32, -0.127142, -0.463046, -0.182321, 1.71231, -0.0468221, 0.301951, -0.0165857, 140, 860
33, -0.130944, -0.452477, -0.189213, 1.70686, -0.0471756, 0.295518, -0.0162772, 109, 891
34, -0.133843, -0.445759, -0.192443, 1.70347, -0.0508563, 0.291765, -0.0195903, 137, 863
35, -0.135403, -0.447266, -0.187006, 1.70455, -0.0655031, 0.293789, -0.0345433, 136, 864
36, -0.136593, -0.444931, -0.182914, 1.70392, -0.0778613, 0.293541, -0.0472113, 118, 882
37, -0.138241, -0.444093, -0.178052, 1.7041, -0.092487, 0.294317, -0.0621363, 114, 886
38, -0.139783, -0.442601, -0.173219, 1.70416, -0.10705, 0.294821, -0.0770195, 200, 800
39, -0.141616, -0.447488, -0.1675, 1.70729, -0.121834, 0.298871, -0.0920388, 145, 855
40, -0.143018, -0.444285, -0.163487, 1.70647, -0.134921, 0.298238, -0.105418, 114, 886
41, -0.144591, -0.439739, -0.159272, 1.70504, -0.149457, 0.296919, -0.120264, 147, 853
42, -0.145955, -0.440072, -0.15462, 1.70587, -0.162657, 0.298125, -0.133742, 148, 852
43, -0.147557, -0.439182, -0.149795, 1.70653, -0.177274, 0.298993, -0.148651, 109, 891
44, -0.149401, -0.441159, -0.144406, 1.70873, -0.192685, 0.301554, -0.16434, 116, 884
45, -0.150882, -0.438605, -0.140413, 1.70847, -0.205852, 0.301323, -0.177758, 148, 852
46, -0.152433, -0.438259, -0.135809, 1.70921, -0.219775, 0.302247, -0.191947, 145, 855
47, -0.153751, -0.437094, -0.13174, 1.70973, -0.232237, 0.302747, -0.204662, 145, 855
48, -0.1556, -0.439879, -0.126275, 1.71261, -0.247659, 0.305736, -0.220367, 111, 889
49, -0.157132, -0.437407, -0.122011, 1.71258, -0.261559, 0.305597, -0.234527, 110, 890
50, -0.158986, -0.44017, -0.116576, 1.71558, -0.276962, 0.308569, -0.250218, 116, 884
51, -0.160776, -0.435431, -0.112991, 1.71442, -0.290945, 0.307239, -0.26439, 110, 890
52, -0.162298, -0.437283, -0.10803, 1.71686, -0.304889, 0.309495, -0.278622, 141, 859
53, -0.16416, -0.437987, -0.102973, 1.71912, -0.32028, 0.311451, -0.294294, 147, 853
54, -0.166005, -0.433476, -0.0990933, 1.71822, -0.335012, 0.310309, -0.309217, 109, 891
55, -0.16733, -0.438107, -0.0941448, 1.72211, -0.347531, 0.313899, -0.322034, 118, 882
56, -0.169371, -0.434675, -0.0899589, 1.72208, -0.363041, 0.313504, -0.337736, 140, 860
57, -0.171163, -0.434637, -0.0853257, 1.72377, -0.377767, 0.314801, -0.352705, 110, 890
58, -0.172793, -0.433982, -0.0812495, 1.72527, -0.391065, 0.315808, -0.366225, 123, 877
59, -0.174458, -0.438468, -0.0757864, 1.7296, -0.40572, 0.319521, -0.381218, 155, 845
60, -0.17644, -0.439585, -0.0708265, 1.73229, -0.421172, 0.321579, -0.396937, 149, 851
61, -0.178754, -0.437319, -0.0664129, 1.73329, -0.43746, 0.321997, -0.413402, 110, 890
62, -0.180423, -0.437774, -0.0618767, 1.73553, -0.451466, 0.323535, -0.427667, 239, 761
63, -0.181927, -0.442456, -0.0568513, 1.74014, -0.464669, 0.327237, -0.441224, 145, 855
64, -0.184031, -0.442606, -0.0521418, 1.74247, -0.480174, 0.328789, -0.456961, 114, 886
65, -0.186082, -0.440524, -0.0480209, 1.74337, -0.49504, 0.329042, -0.471981, 114, 886
66, -0.188166, -0.441836, -0.0431593, 1.74685, -0.510487, 0.331439, -0.487723, 259, 741
67, -0.189667, -0.443639, -0.0388604, 1.74982, -0.523059, 0.333509, -0.500574, 152, 848
68, -0.184621, -0.454097, -0.0322344, 1.75315, -0.52112, 0.335451, -0.499708, 148, 852
69, -0.179658, -0.466514, -0.025119, 1.75777, -0.519798, 0.338507, -0.499549, 817, 183
70, -0.174511, -0.47906, -0.017777, 1.7628, -0.518314, 0.341807, -0.499312, 132, 868
71, -0.169516, -0.484549, -0.0125783, 1.7631, -0.514947, 0.341291, -0.49683, 115, 885
72, -0.164848, -0.491542, -0.00619124, 1.76451, -0.514313, 0.34164, -0.497176, 835, 165
73, -0.159593, -0.501689, 0.000240889, 1.76771, -0.511444, 0.34354, -0.495433, 114, 886
74, -0.154624, -0.510079, 0.00645031, 1.7698, -0.509324, 0.344539, -0.49435, 114, 886
75, -0.149805, -0.519883, 0.0133844, 1.77299, -0.508497, 0.346432, -0.494654, 155, 845
76, -0.144674, -0.523273, 0.0183912, 1.77195, -0.505071, 0.344752, -0.492082, 175, 825
77, -0.139855, -0.53302, 0.0253037, 1.77507, -0.504211, 0.346605, -0.49235, 112, 888
78, -0.134884, -0.537816, 0.031044, 1.77513, -0.502099, 0.345807, -0.491186, 114, 886
79, -0.129916, -0.54259, 0.0367777, 1.77517, -0.499991, 0.344994, -0.490022, 117, 883
80, -0.125301, -0.548651, 0.0430157, 1.77589, -0.499288, 0.34483, -0.490283, 113, 887
81, -0.11998, -0.554909, 0.0485401, 1.77667, -0.495726, 0.344736, -0.487706, 112, 888
82, -0.115511, -0.559465, 0.0548415, 1.7768, -0.495707, 0.343954, -0.488638, 110, 890
83, -0.110111, -0.566941, 0.0609381, 1.77824, -0.49274, 0.344405, -0.48673, 138, 862
84, -0.105177, -0.571081, 0.066567, 1.77785, -0.490671, 0.343253, -0.48558, 138, 862
85, -0.100247, -0.575203, 0.0721905, 1.77743, -0.488609, 0.342089, -0.484432, 142, 858
86, -0.0953208, -0.579308, 0.0778088, 1.77699, -0.486556, 0.340913, -0.483289, 114, 886
87, -0.09057, -0.584926, 0.0841579, 1.77772, -0.485754, 0.340662, -0.483489, 109, 891
88, -0.0860244, -0.580771, 0.088264, 1.77244, -0.483492, 0.335254, -0.481832, 122, 878
89, -0.0812883, -0.58638, 0.0945877, 1.77317, -0.482724, 0.334993, -0.482044, 112, 888
90, -0.0768105, -0.588532, 0.100379, 1.77168, -0.482207, 0.332842, -0.482371, 135, 865
91, -0.0715575, -0.593886, 0.106057, 1.77201, -0.479413, 0.332333, -0.480518, 115, 885
92, -0.067535, -0.587827, 0.11046, 1.76568, -0.478784, 0.325986, -0.480451, 115, 885
93, -0.0622966, -0.593178, 0.116112, 1.76602, -0.476036, 0.325477, -0.478615, 109, 891
94, -0.0584937, -0.591841, 0.121889, 1.76271, -0.477249, 0.321672, -0.480567, 117, 883
95, -0.0536947, -0.592117, 0.126807, 1.76003, -0.474918, 0.318586, -0.478971, 113, 887
96, -0.0490919, -0.594008, 0.132439, 1.7586, -0.473857, 0.316451, -0.478723, 146, 854
97, -0.0448813, -0.594327, 0.137986, 1.75618, -0.473636, 0.313497, -0.479252, 109, 891
98, -0.0402206, -0.591395, 0.142727, 1.75173, -0.471553, 0.308843, -0.477837, 203, 797
99, -0.0365181, -0.586705, 0.147631, 1.74627, -0.471826, 0.303356, -0.4787, 149, 851
100, -0.0313972, -0.588524, 0.152662, 1.74457, -0.468825, 0.301117, -0.47644, 150, 850
101, -0.0304248, -0.589882, 0.155157, 1.74461, -0.470493, 0.300785, -0.478389, 147, 853
102, -0.0309209, -0.586977, 0.154852, 1.743, -0.47132, 0.299382, -0.479153, 150, 850
103, -0.0303626, -0.587198, 0.154609, 1.74299, -0.469781, 0.299413, -0.477622, 142, 858
104, -0.0308245, -0.587368, 0.154858, 1.74322, -0.471093, 0.299577, -0.478933, 114, 886
105, -0.0306567, -0.586016, 0.154525, 1.74223, -0.470387, 0.298775, -0.478194, 113, 887
106, -0.0311509, -0.583113, 0.154222, 1.74062, -0.471214, 0.297374, -0.478958, 144, 856
107, -0.0306599, -0.588079, 0.154872, 1.74363, -0.470714, 0.299926, -0.478567, 113, 887
108, -0.0304919, -0.586727, 0.154539, 1.74264, -0.470009, 0.299124, -0.477828, 128, 872
109, -0.0309862, -0.583823, 0.154236, 1.74104, -0.470835, 0.297722, -0.478592, 145, 855
110, -0.0304951, -0.588789, 0.154887, 1.74404, -0.470335, 0.300275, -0.478201, 128, 872
111, -0.0303271, -0.587437, 0.154553, 1.74305, -0.469629, 0.299472, -0.477461, 149, 851
112, -0.0307891, -0.587607, 0.154802, 1.74328, -0.470941, 0.299636, -0.478773, 136, 864
113, -0.0302305, -0.587828, 0.154558, 1.74327, -0.469403, 0.299667, -0.477242, 110, 890
114, -0.0306926, -0.587998, 0.154808, 1.7435, -0.470714, 0.299831, -0.478553, 147, 853
115, -0.0301338, -0.588219, 0.154563, 1.74349, -0.469175, 0.299861, -0.477022, 145, 855
116, -0.030596, -0.588388, 0.154813, 1.74372, -0.470487, 0.300025, -0.478333, 117, 883
117, -0.0300372, -0.588609, 0.154569, 1.74371, -0.468948, 0.300056, -0.476802, 154, 846
118, -0.0304995, -0.588778, 0.154819, 1.74394, -0.470259, 0.30022, -0.478113, 192, 808
119, -0.0308995, -0.584158, 0.154162, 1.74114, -0.470539, 0.297832, -0.478289, 142, 858
120, -0.0304087, -0.589124, 0.154812, 1.74414, -0.470039, 0.300385, -0.477898, 149, 851
121, -0.0308086, -0.584503, 0.154155, 1.74134, -0.470318, 0.297997, -0.478074, 148, 852
122, -0.0303179, -0.589469, 0.154806, 1.74434, -0.469818, 0.30055, -0.477682, 119, 881
123, -0.0307178, -0.584848, 0.154149, 1.74154, -0.470097, 0.298161, -0.477859, 116, 884
124, -0.030615, -0.58825, 0.154711, 1.74357, -0.470427, 0.299888, -0.478256, 131, 869
125, -0.0300562, -0.588471, 0.154467, 1.74356, -0.468888, 0.299919, -0.476725, 160, 840
126, -0.0305502, -0.585567, 0.154164, 1.74195, -0.469714, 0.298516, -0.477489, 172, 828
127, -0.0304476, -0.588968, 0.154727, 1.74398, -0.470043, 0.300244, -0.477886, 906, 94
128, -0.0304532, -0.58594, 0.154161, 1.74217, -0.469482, 0.298699, -0.477263, 217, 783
129, -0.0303506, -0.589341, 0.154724, 1.74419, -0.469811, 0.300426, -0.47766, 194, 806
130, -0.030356, -0.586312, 0.154157, 1.74238, -0.469249, 0.298881, -0.477037, 138, 862
131, -0.0302536, -0.589714, 0.154721, 1.7444, -0.469578, 0.300609, -0.477433, 193, 807
132, -0.0306532, -0.585093, 0.154063, 1.7416, -0.469857, 0.29822, -0.47761, 149, 851
133, -0.0301907, -0.587021, 0.154169, 1.74278, -0.468866, 0.29923, -0.476666, 112, 888
134, -0.0328709, -0.590583, 0.15479, 1.74571, -0.474983, 0.301801, -0.482698, 173, 827
135, -0.0413959, -0.585129, 0.153252, 1.74447, -0.490967, 0.301141, -0.498058, 109, 891
136, -0.0493553, -0.582859, 0.151969, 1.74475, -0.505916, 0.301939, -0.512419, 145, 855
137, -0.0571592, -0.582596, 0.150902, 1.74644, -0.520618, 0.303933, -0.526573, 144, 856
138, -0.0651235, -0.579262, 0.149556, 1.74624, -0.535629, 0.304342, -0.540992, 111, 889
139, -0.0733161, -0.575992, 0.147895, 1.74606, -0.550694, 0.304902, -0.555414, 112, 888
140, -0.0818169, -0.5715, 0.146663, 1.74545, -0.567255, 0.304975, -0.571369, 151, 849
141, -0.089792, -0.568519, 0.144752, 1.74521, -0.581612, 0.305657, -0.585068, 131, 869
142, -0.098082, -0.564351, 0.143261, 1.74458, -0.597452, 0.305897, -0.60028, 148, 852
143, -0.105844, -0.563695, 0.142054, 1.74637, -0.612171, 0.30806, -0.614494, 185, 815
144, -0.114718, -0.558472, 0.14063, 1.74535, -0.629601, 0.308015, -0.631257, 139, 861
145, -0.122871, -0.552992, 0.138321, 1.74377, -0.644231, 0.307783, -0.645157, 114, 886
146, -0.131085, -0.547717, 0.136315, 1.74233, -0.659552, 0.307651, -0.659778, 142, 858
147, -0.139232, -0.54471, 0.13484, 1.74273, -0.675309, 0.308823, -0.674963, 144, 856
148, -0.148049, -0.538423, 0.13283, 1.74083, -0.692229, 0.308444, -0.691126, 143, 857
149, -0.155594, -0.540275, 0.132153, 1.7445, -0.707461, 0.311967, -0.706041, 145, 855
150, -0.164616, -0.532513, 0.129805, 1.74168, -0.724587, 0.311093, -0.722321, 157, 843
151, -0.172697, -0.524447, 0.126866, 1.73821, -0.738833, 0.309913, -0.735686, 127, 873
152, -0.180821, -0.521636, 0.125602, 1.73873, -0.755354, 0.311292, -0.751681, 109, 891
153, -0.189779, -0.51587, 0.123595, 1.73749, -0.773008, 0.311642, -0.768621, 149, 851
154, -0.198469, -0.508032, 0.121381, 1.73439, -0.790174, 0.310797, -0.784953, 144, 856
155, -0.206086, -0.506623, 0.119822, 1.73586, -0.805164, 0.312949, -0.799507, 282, 718
156, -0.214709, -0.500539, 0.11765, 1.73422, -0.822152, 0.313204, -0.815765, 145, 855
157, -0.222904, -0.494265, 0.115151, 1.73212, -0.837742, 0.313283, -0.830589, 109, 891
158, -0.230818, -0.489624, 0.11299, 1.73129, -0.853136, 0.314129, -0.845353, 760, 240
159, -0.239963, -0.482357, 0.111111, 1.72894, -0.872497, 0.314028, -0.863933, 145, 855
160, -0.248243, -0.476335, 0.108724, 1.72691, -0.888857, 0.314329, -0.879541, 120, 880
161, -0.256386, -0.473945, 0.107302, 1.72808, -0.906251, 0.316317, -0.896522, 138, 862
162, -0.264342, -0.468229, 0.104865, 1.72648, -0.921856, 0.316888, -0.911434, 129, 871
163, -0.272394, -0.462636, 0.102624, 1.72502, -0.938185, 0.317535, -0.927092, 139, 861
164, -0.280333, -0.457487, 0.10012, 1.72377, -0.953795, 0.318441, -0.942042, 117, 883
165, -0.278273, -0.441151, 0.084547, 1.70332, -0.921404, 0.311893, -0.907, 143, 857
166, -0.293708, -0.458164, 0.0977482, 1.73083, -0.984721, 0.324535, -0.973044, 112, 888
167, -0.303904, -0.437444, 0.0919515, 1.71636, -1.00244, 0.319414, -0.98854, 142, 858
